;FLAVOR:Marlin
;TIME:7749
;Filament used: 7.27851m
;Layer height: 0.25
;MINX:51.521
;MINY:51.517
;MINZ:0.25
;MAXX:148.491
;MAXY:148.486
;MAXZ:7
;Generated with Cura_SteamEngine main
M140 S110
M105
M190 S110
M104 S245
M105
M109 S245
M82 ;absolute extrusion mode
; Ender 3 Custom Start G-code
G92 E0 ; Reset Extruder
G28 ; Home all axes
G1 Z2.0 F3000 ; Move Z Axis up little to prevent scratching of Heat Bed
G1 X0.1 Y20 Z0.3 F5000.0 ; Move to start position
G1 X0.1 Y200.0 Z0.3 F1500.0 E15 ; Draw the first line
G1 X0.4 Y200.0 Z0.3 F5000.0 ; Move to side a little
G1 X0.4 Y20 Z0.3 F1500.0 E30 ; Draw the second line
G92 E0 ; Reset Extruder
G1 Z2.0 F3000 ; Move Z Axis up little to prevent scratching of Heat Bed
G1 X5 Y20 Z0.3 F5000.0 ; Move over to prevent blob squish
G92 E0
G92 E0
G1 F2700 E-5
;LAYER_COUNT:28
;LAYER:0
M107
G0 F6000 X65.311 Y66.13 Z0.25
G0 X58.231 Y75.389
;TYPE:SKIRT
G1 F2700 E0
G1 F1200 X58.447 Y75.025 E0.0176
G1 X58.93 Y74.246 E0.0557
G1 X59.486 Y73.375 E0.09867
G1 X59.953 Y72.676 E0.13362
G1 X60.656 Y71.678 E0.18437
G1 X61.449 Y70.602 E0.23994
G1 X61.702 Y70.272 E0.25723
G1 X62.232 Y69.607 E0.29258
G1 X63.252 Y68.378 E0.35898
G1 X63.534 Y68.051 E0.37693
G1 X64.143 Y67.375 E0.41476
G1 X64.698 Y66.774 E0.44877
G1 X65.311 Y66.13 E0.48574
G1 X66.297 Y65.155 E0.54339
G1 X67.301 Y64.206 E0.60083
G1 X67.616 Y63.919 E0.61854
G1 X68.471 Y63.175 E0.66566
G1 X69.525 Y62.294 E0.72278
G1 X69.85 Y62.033 E0.74011
G1 X70.715 Y61.367 E0.78549
G1 X71.816 Y60.552 E0.84244
G1 X72.162 Y60.306 E0.86009
G1 X73.067 Y59.691 E0.90558
G1 X74.232 Y58.932 E0.96339
G1 X74.581 Y58.714 E0.9805
G1 X75.305 Y58.28 E1.01559
G1 X76.325 Y57.691 E1.06456
G1 X77.075 Y57.279 E1.10014
G1 X78.015 Y56.791 E1.14417
G1 X78.706 Y56.445 E1.1763
G1 X79.672 Y55.983 E1.22082
G1 X80.522 Y55.604 E1.25951
G1 X81.469 Y55.198 E1.30235
G1 X82.365 Y54.836 E1.34253
G1 X83.415 Y54.444 E1.38912
G1 X84.708 Y53.99 E1.4461
G1 X85.11 Y53.858 E1.46369
G1 X86.144 Y53.541 E1.50865
G1 X87.455 Y53.166 E1.56534
G1 X87.868 Y53.057 E1.5831
G1 X88.928 Y52.799 E1.62846
G1 X89.741 Y52.613 E1.66313
G1 X90.417 Y52.469 E1.69187
G1 X91.78 Y52.219 E1.74948
G1 X93.107 Y52.007 E1.80535
G1 X93.515 Y51.949 E1.82248
G1 X94.748 Y51.802 E1.87411
G1 X96.074 Y51.672 E1.9295
G1 X96.489 Y51.64 E1.94681
G1 X97.448 Y51.583 E1.98675
G1 X98.239 Y51.547 E2.01967
G1 X99.354 Y51.517 E2.06604
G1 X100.455 Y51.518 E2.11181
G1 X101.839 Y51.547 E2.16937
G1 X102.264 Y51.565 E2.18705
G1 X103.341 Y51.631 E2.23191
G1 X104.692 Y51.739 E2.28826
G1 X105.129 Y51.783 E2.30652
G1 X106.171 Y51.909 E2.35016
G1 X106.944 Y52.013 E2.38258
G1 X108.026 Y52.18 E2.4281
G1 X109.117 Y52.38 E2.47422
G1 X110.447 Y52.65 E2.53064
G1 X110.851 Y52.74 E2.54785
G1 X111.969 Y53.014 E2.5957
G1 X113.312 Y53.374 E2.65351
G1 X113.702 Y53.486 E2.67038
G1 X114.504 Y53.733 E2.70527
G1 X116.009 Y54.23 E2.77116
G1 X116.403 Y54.368 E2.78852
G1 X117.277 Y54.695 E2.82732
G1 X118.754 Y55.283 E2.89341
G1 X119.141 Y55.447 E2.91088
G1 X120.089 Y55.87 E2.95404
G1 X120.884 Y56.239 E2.99048
G1 X121.782 Y56.676 E3.032
G1 X122.73 Y57.17 E3.07645
G1 X123.946 Y57.833 E3.13403
G1 X124.326 Y58.05 E3.15222
G1 X125.045 Y58.48 E3.18705
G1 X126.019 Y59.081 E3.23463
G1 X126.791 Y59.579 E3.27283
G1 X127.657 Y60.172 E3.31646
G1 X128.797 Y60.985 E3.37468
G1 X129.127 Y61.23 E3.39177
G1 X130.051 Y61.946 E3.44037
G1 X131.096 Y62.791 E3.49624
G1 X131.403 Y63.049 E3.51291
G1 X132.277 Y63.813 E3.56117
G1 X133.265 Y64.715 E3.61679
G1 X133.565 Y65 E3.634
G1 X134.378 Y65.804 E3.68153
G1 X135.334 Y66.788 E3.73857
G1 X135.601 Y67.073 E3.75481
G1 X136.351 Y67.907 E3.80144
G1 X137.254 Y68.956 E3.85899
G1 X137.51 Y69.265 E3.87567
G1 X138.204 Y70.138 E3.92203
G1 X139.024 Y71.213 E3.97825
G1 X139.269 Y71.546 E3.99543
G1 X139.816 Y72.322 E4.03491
G1 X140.711 Y73.651 E4.10152
G1 X140.934 Y73.997 E4.11863
G1 X141.462 Y74.855 E4.16052
G1 X142.193 Y76.095 E4.22036
G1 X142.4 Y76.462 E4.23788
G1 X142.891 Y77.378 E4.28109
G1 X143.524 Y78.612 E4.33875
G1 X143.715 Y79.003 E4.35684
G1 X144.208 Y80.072 E4.40578
G1 X144.762 Y81.343 E4.46343
G1 X144.913 Y81.708 E4.47985
G1 X145.305 Y82.71 E4.52458
G1 X145.795 Y84.043 E4.58363
G1 X145.929 Y84.429 E4.60062
G1 X146.178 Y85.193 E4.63402
G1 X146.511 Y86.273 E4.68101
G1 X146.772 Y87.183 E4.72037
G1 X147.039 Y88.216 E4.76473
G1 X147.358 Y89.558 E4.82208
G1 X147.446 Y89.964 E4.83935
G1 X147.664 Y91.078 E4.88654
G1 X147.899 Y92.42 E4.94318
G1 X147.962 Y92.825 E4.96023
G1 X148.116 Y93.969 E5.00822
G1 X148.27 Y95.335 E5.06537
G1 X148.307 Y95.728 E5.08178
G1 X148.388 Y96.82 E5.1273
G1 X148.462 Y98.181 E5.18397
G1 X148.477 Y98.603 E5.20153
G1 X148.491 Y99.485 E5.2382
G1 X148.483 Y101.092 E5.30501
G1 X148.473 Y101.499 E5.32194
G1 X148.433 Y102.414 E5.36002
G1 X148.328 Y104.033 E5.42747
G1 X148.293 Y104.444 E5.44462
G1 X148.21 Y105.24 E5.47789
G1 X148.077 Y106.349 E5.52433
G1 X147.945 Y107.288 E5.56375
G1 X147.758 Y108.404 E5.6108
G1 X147.513 Y109.713 E5.66616
G1 X147.429 Y110.12 E5.68344
G1 X147.174 Y111.233 E5.73091
G1 X146.838 Y112.571 E5.78827
G1 X146.731 Y112.966 E5.80528
G1 X146.499 Y113.763 E5.83979
G1 X146.155 Y114.881 E5.88842
G1 X145.874 Y115.731 E5.92564
G1 X145.572 Y116.574 E5.96287
G1 X145.209 Y117.543 E6.00589
G1 X144.842 Y118.465 E6.04715
G1 X144.501 Y119.266 E6.08334
G1 X144.082 Y120.207 E6.12617
G1 X143.663 Y121.102 E6.16725
G1 X143.156 Y122.113 E6.21428
G1 X142.516 Y123.327 E6.27133
G1 X142.314 Y123.692 E6.28868
G1 X141.819 Y124.548 E6.32979
G1 X141.389 Y125.268 E6.36465
G1 X140.837 Y126.156 E6.40812
G1 X140.363 Y126.876 E6.44396
G1 X139.441 Y128.214 E6.51152
G1 X139.202 Y128.546 E6.52853
G1 X138.513 Y129.464 E6.57625
G1 X137.682 Y130.524 E6.63224
G1 X137.414 Y130.852 E6.64985
G1 X136.816 Y131.557 E6.68829
G1 X136.13 Y132.344 E6.73169
G1 X135.507 Y133.029 E6.77019
G1 X134.903 Y133.662 E6.80656
G1 X133.73 Y134.839 E6.87565
G1 X133.44 Y135.119 E6.89241
G1 X132.675 Y135.827 E6.93575
G1 X131.64 Y136.749 E6.99337
G1 X131.316 Y137.026 E7.0111
G1 X130.436 Y137.748 E7.05842
G1 X129.351 Y138.601 E7.1158
G1 X129.031 Y138.842 E7.13245
G1 X128.151 Y139.481 E7.17767
G1 X127.006 Y140.276 E7.23562
G1 X125.941 Y140.967 E7.2884
G1 X124.572 Y141.805 E7.35514
G1 X124.199 Y142.023 E7.3731
G1 X123.29 Y142.529 E7.41635
G1 X122.449 Y142.981 E7.45605
G1 X121.634 Y143.398 E7.49411
G1 X120.642 Y143.874 E7.53985
G1 X119.35 Y144.462 E7.59887
G1 X118.97 Y144.626 E7.61607
G1 X117.985 Y145.028 E7.66031
G1 X116.675 Y145.533 E7.71868
G1 X116.279 Y145.676 E7.73618
G1 X115.26 Y146.022 E7.78092
G1 X113.932 Y146.444 E7.83885
G1 X113.531 Y146.564 E7.85626
G1 X112.677 Y146.8 E7.89309
G1 X111.145 Y147.191 E7.95883
G1 X110.736 Y147.286 E7.97628
G1 X109.704 Y147.505 E8.02014
G1 X108.842 Y147.674 E8.05666
G1 X108.158 Y147.798 E8.08557
G1 X107.052 Y147.97 E8.1321
G1 X105.924 Y148.124 E8.17943
G1 X105.03 Y148.227 E8.21685
G1 X104.149 Y148.308 E8.25363
G1 X103.003 Y148.394 E8.30141
G1 X102.101 Y148.443 E8.33896
G1 X101.128 Y148.472 E8.37943
G1 X100.314 Y148.485 E8.41328
G1 X99.526 Y148.486 E8.44604
G1 X98.193 Y148.451 E8.50148
G1 X97.438 Y148.417 E8.5329
G1 X96.29 Y148.345 E8.58072
G1 X95.205 Y148.246 E8.62602
G1 X93.804 Y148.089 E8.68463
G1 X93.403 Y148.036 E8.70145
G1 X92.357 Y147.877 E8.74544
G1 X91 Y147.643 E8.80269
G1 X90.602 Y147.567 E8.81953
G1 X89.44 Y147.319 E8.86893
G1 X88.118 Y147.007 E8.9254
G1 X87.723 Y146.906 E8.94235
G1 X86.68 Y146.616 E8.98736
G1 X85.356 Y146.22 E9.04482
G1 X84.966 Y146.095 E9.06184
G1 X83.961 Y145.752 E9.10599
G1 X83.268 Y145.504 E9.13659
G1 X82.217 Y145.106 E9.18332
G1 X81.409 Y144.775 E9.21962
G1 X80.598 Y144.43 E9.25626
G1 X79.536 Y143.954 E9.30464
G1 X78.577 Y143.49 E9.34894
G1 X77.349 Y142.867 E9.40619
G1 X76.975 Y142.668 E9.4238
G1 X76.081 Y142.169 E9.46637
G1 X75.384 Y141.767 E9.49982
G1 X74.485 Y141.225 E9.54346
G1 X73.481 Y140.582 E9.59303
G1 X72.034 Y139.604 E9.66564
G1 X71.352 Y139.11 E9.70065
G1 X70.053 Y138.127 E9.76838
G1 X69.722 Y137.866 E9.7859
G1 X68.882 Y137.173 E9.83118
G1 X67.829 Y136.27 E9.88885
G1 X67.515 Y135.99 E9.90634
G1 X66.695 Y135.227 E9.95291
G1 X65.703 Y134.265 E10.01036
G1 X65.414 Y133.973 E10.02744
G1 X64.686 Y133.212 E10.07122
G1 X64.19 Y132.679 E10.10149
G1 X63.661 Y132.094 E10.13428
G1 X62.889 Y131.191 E10.18368
G1 X62.204 Y130.36 E10.22845
G1 X61.6 Y129.596 E10.26894
G1 X60.943 Y128.718 E10.31453
G1 X60.155 Y127.619 E10.37075
G1 X59.922 Y127.281 E10.38782
G1 X59.411 Y126.509 E10.42631
G1 X58.555 Y125.152 E10.49302
G1 X58.341 Y124.797 E10.51025
G1 X57.802 Y123.859 E10.55523
G1 X57.139 Y122.655 E10.61237
G1 X56.936 Y122.268 E10.63054
G1 X56.475 Y121.344 E10.67347
G1 X56.074 Y120.512 E10.71187
G1 X55.819 Y119.962 E10.73707
G1 X55.271 Y118.688 E10.79473
G1 X54.934 Y117.864 E10.83175
G1 X54.578 Y116.947 E10.87264
G1 X54.314 Y116.215 E10.90499
G1 X53.79 Y114.659 E10.97325
G1 X53.66 Y114.246 E10.99126
G1 X53.396 Y113.342 E11.03041
G1 X52.983 Y111.815 E11.09618
G1 X52.879 Y111.399 E11.114
G1 X52.698 Y110.604 E11.1479
G1 X52.506 Y109.709 E11.18596
G1 X52.286 Y108.578 E11.23386
G1 X52.1 Y107.449 E11.28143
G1 X51.907 Y106.103 E11.33796
G1 X51.858 Y105.705 E11.35464
G1 X51.747 Y104.639 E11.39919
G1 X51.631 Y103.25 E11.45714
G1 X51.605 Y102.842 E11.47414
G1 X51.554 Y101.681 E11.52246
G1 X51.523 Y100.354 E11.57764
G1 X51.521 Y99.941 E11.59481
G1 X51.534 Y99.026 E11.63286
G1 X51.592 Y97.41 E11.70009
G1 X51.614 Y97.009 E11.71678
G1 X51.698 Y95.907 E11.76273
G1 X51.826 Y94.574 E11.81841
G1 X51.875 Y94.152 E11.83607
G1 X51.997 Y93.249 E11.87395
G1 X52.239 Y91.692 E11.93946
G1 X52.311 Y91.281 E11.95681
G1 X52.482 Y90.408 E11.99379
G1 X52.827 Y88.825 E12.06115
G1 X52.922 Y88.424 E12.07829
G1 X53.131 Y87.617 E12.11294
G1 X53.39 Y86.675 E12.15356
G1 X53.69 Y85.66 E12.19756
G1 X53.967 Y84.802 E12.23505
G1 X54.507 Y83.25 E12.30337
G1 X54.652 Y82.859 E12.32071
G1 X55.016 Y81.935 E12.36199
G1 X55.307 Y81.223 E12.39397
G1 X55.739 Y80.22 E12.43938
G1 X56.192 Y79.243 E12.48415
G1 X56.493 Y78.616 E12.51306
G1 X57.008 Y77.594 E12.56064
G1 X57.522 Y76.64 E12.6057
G1 X58.231 Y75.389 E12.66548
G1 F2700 E7.66548
G0 F6000 X55.262 Y83.514
G1 F2700 E12.66548
G1 F1200 X55.396 Y83.151 E12.68157
G1 X55.704 Y82.367 E12.71659
G1 X56.109 Y81.377 E12.76106
G1 X56.465 Y80.556 E12.79826
G1 X56.853 Y79.718 E12.83665
G1 X57.29 Y78.809 E12.87859
G1 X57.588 Y78.214 E12.90625
G1 X58.218 Y77.035 E12.96183
G1 X58.927 Y75.784 E13.02161
G1 X59.127 Y75.446 E13.03794
G1 X59.605 Y74.675 E13.07566
G1 X60.062 Y73.957 E13.11104
G1 X60.608 Y73.135 E13.15207
G1 X61.3 Y72.153 E13.20201
G1 X62.093 Y71.077 E13.25758
G1 X62.327 Y70.771 E13.2736
G1 X62.994 Y69.938 E13.31797
G1 X63.867 Y68.889 E13.37471
G1 X64.129 Y68.587 E13.39133
G1 X64.829 Y67.811 E13.43478
G1 X65.286 Y67.317 E13.46276
G1 X66.114 Y66.455 E13.51245
G1 X66.846 Y65.736 E13.55511
G1 X67.85 Y64.787 E13.61254
G1 X68.143 Y64.522 E13.62897
G1 X68.984 Y63.789 E13.67535
G1 X70.038 Y62.908 E13.73246
G1 X70.339 Y62.666 E13.74852
G1 X71.191 Y62.01 E13.79322
G1 X72.292 Y61.195 E13.85018
G1 X72.613 Y60.967 E13.86654
G1 X73.504 Y60.362 E13.91132
G1 X74.669 Y59.603 E13.96913
G1 X74.993 Y59.4 E13.98502
G1 X75.717 Y58.966 E14.02012
G1 X76.714 Y58.39 E14.06799
G1 X77.19 Y58.125 E14.09064
G1 X78.373 Y57.506 E14.14615
G1 X79.064 Y57.16 E14.17828
G1 X79.998 Y56.714 E14.22131
G1 X80.848 Y56.335 E14.26
G1 X81.773 Y55.938 E14.30185
G1 X82.646 Y55.585 E14.341
G1 X83.68 Y55.199 E14.38689
G1 X84.973 Y54.745 E14.44386
G1 X85.346 Y54.622 E14.46019
G1 X86.364 Y54.31 E14.50446
G1 X87.675 Y53.935 E14.56115
G1 X88.058 Y53.834 E14.57762
G1 X89.107 Y53.578 E14.62251
G1 X89.752 Y53.43 E14.65002
G1 X90.879 Y53.194 E14.69789
G1 X91.906 Y53.009 E14.74128
G1 X93.233 Y52.797 E14.79715
G1 X93.611 Y52.744 E14.81302
G1 X94.826 Y52.599 E14.86389
G1 X96.152 Y52.469 E14.91928
G1 X96.537 Y52.438 E14.93534
G1 X97.338 Y52.39 E14.9687
G1 X98.431 Y52.341 E15.01419
G1 X99.355 Y52.317 E15.05262
G1 X100.439 Y52.318 E15.09768
G1 X101.823 Y52.347 E15.15524
G1 X102.216 Y52.363 E15.17159
G1 X103.277 Y52.428 E15.21578
G1 X104.628 Y52.536 E15.27213
G1 X105.034 Y52.577 E15.2891
G1 X106.064 Y52.702 E15.33223
G1 X106.837 Y52.806 E15.36466
G1 X107.883 Y52.967 E15.40866
G1 X108.958 Y53.164 E15.4541
G1 X110.288 Y53.434 E15.51052
G1 X110.662 Y53.517 E15.52645
G1 X111.524 Y53.726 E15.56332
G1 X113.105 Y54.147 E15.63134
G1 X113.466 Y54.251 E15.64696
G1 X114.476 Y54.564 E15.69092
G1 X115.758 Y54.989 E15.74708
G1 X116.122 Y55.118 E15.76313
G1 X117.209 Y55.527 E15.81142
G1 X118.457 Y56.026 E15.8673
G1 X118.816 Y56.178 E15.8835
G1 X119.753 Y56.596 E15.92616
G1 X120.537 Y56.96 E15.9621
G1 X121.414 Y57.387 E16.00265
G1 X122.347 Y57.873 E16.04639
G1 X123.563 Y58.536 E16.10397
G1 X123.915 Y58.737 E16.12082
G1 X124.75 Y59.237 E16.16129
G1 X125.456 Y59.672 E16.19576
G1 X126.341 Y60.241 E16.2395
G1 X127.192 Y60.823 E16.28237
G1 X128.332 Y61.636 E16.34058
G1 X129.363 Y62.422 E16.39448
G1 X130.593 Y63.414 E16.46018
G1 X130.878 Y63.652 E16.47561
G1 X131.558 Y64.244 E16.5131
G1 X132.725 Y65.306 E16.5787
G1 X133.003 Y65.57 E16.59464
G1 X133.804 Y66.361 E16.64144
G1 X134.76 Y67.345 E16.69848
G1 X135.578 Y68.24 E16.74889
G1 X136.647 Y69.478 E16.81689
G1 X136.885 Y69.764 E16.83236
G1 X137.568 Y70.623 E16.87799
G1 X138.388 Y71.698 E16.9342
G1 X138.615 Y72.007 E16.95014
G1 X139.162 Y72.783 E16.98961
G1 X140.047 Y74.097 E17.05548
G1 X140.254 Y74.417 E17.07132
G1 X140.661 Y75.075 E17.10349
G1 X141.504 Y76.501 E17.17236
G1 X141.696 Y76.841 E17.18859
G1 X142.083 Y77.559 E17.2225
G1 X142.813 Y78.978 E17.28885
G1 X142.989 Y79.34 E17.30558
G1 X143.474 Y80.391 E17.35371
G1 X144.169 Y82.001 E17.42661
G1 X144.554 Y82.986 E17.47058
G1 X145.044 Y84.319 E17.52963
G1 X145.168 Y84.677 E17.54538
G1 X145.466 Y85.595 E17.5855
G1 X145.698 Y86.347 E17.61822
G1 X145.921 Y87.107 E17.65115
G1 X146.206 Y88.181 E17.69735
G1 X146.579 Y89.743 E17.76412
G1 X146.661 Y90.119 E17.78012
G1 X146.876 Y91.216 E17.82659
G1 X147.111 Y92.558 E17.88323
G1 X147.17 Y92.934 E17.89906
G1 X147.321 Y94.058 E17.94621
G1 X147.475 Y95.424 E18.00336
G1 X147.509 Y95.789 E18.0186
G1 X147.589 Y96.863 E18.06338
G1 X147.663 Y98.224 E18.12004
G1 X147.677 Y98.616 E18.13635
G1 X147.692 Y99.728 E18.18259
G1 X147.683 Y101.087 E18.23909
G1 X147.673 Y101.464 E18.25477
G1 X147.621 Y102.611 E18.3025
G1 X147.53 Y103.98 E18.35955
G1 X147.397 Y105.313 E18.41524
G1 X147.304 Y106.089 E18.44773
G1 X147.156 Y107.158 E18.4926
G1 X146.972 Y108.257 E18.53893
G1 X146.727 Y109.566 E18.5943
G1 X146.649 Y109.943 E18.6103
G1 X146.398 Y111.038 E18.65701
G1 X146.062 Y112.376 E18.71436
G1 X145.963 Y112.743 E18.73016
G1 X145.731 Y113.54 E18.76468
G1 X145.441 Y114.486 E18.80581
G1 X145.22 Y115.17 E18.8357
G1 X144.77 Y116.436 E18.89156
G1 X144.464 Y117.251 E18.92775
G1 X144.106 Y118.151 E18.96802
G1 X143.765 Y118.952 E19.00421
G1 X143.356 Y119.871 E19.04603
G1 X142.947 Y120.745 E19.08615
G1 X142.448 Y121.74 E19.13243
G1 X141.808 Y122.954 E19.18949
G1 X141.621 Y123.292 E19.20555
G1 X141.132 Y124.138 E19.24617
G1 X140.622 Y124.99 E19.28746
G1 X140.169 Y125.716 E19.32303
G1 X139.695 Y126.436 E19.35887
G1 X138.783 Y127.759 E19.42568
G1 X138.562 Y128.067 E19.44144
G1 X138.026 Y128.784 E19.47866
G1 X137.052 Y130.03 E19.54441
G1 X136.804 Y130.335 E19.56075
G1 X136.206 Y131.04 E19.59919
G1 X135.535 Y131.809 E19.64162
G1 X134.929 Y132.476 E19.67908
G1 X134.325 Y133.109 E19.71546
G1 X133.164 Y134.273 E19.78381
G1 X132.895 Y134.533 E19.79936
G1 X132.143 Y135.229 E19.84196
G1 X131.108 Y136.151 E19.89959
G1 X130.808 Y136.408 E19.91602
G1 X129.941 Y137.119 E19.96263
G1 X128.856 Y137.972 E20.02001
G1 X127.885 Y138.688 E20.07017
