;FLAVOR:Marlin
;TIME:17987
;Filament used: 18.4575m
;Layer height: 0.25
;MINX:76.5
;MINY:84.712
;MINZ:0.25
;MAXX:123.5
;MAXY:115.287
;MAXZ:185
;Generated with Cura_SteamEngine main
M140 S110
M105
M190 S110
M104 S245
M105
M109 S245
M82 ;absolute extrusion mode
; Ender 3 Custom Start G-code
G92 E0 ; Reset Extruder
G28 ; Home all axes
G1 Z2.0 F3000 ; Move Z Axis up little to prevent scratching of Heat Bed
G1 X0.1 Y20 Z0.3 F5000.0 ; Move to start position
G1 X0.1 Y200.0 Z0.3 F1500.0 E15 ; Draw the first line
G1 X0.4 Y200.0 Z0.3 F5000.0 ; Move to side a little
G1 X0.4 Y20 Z0.3 F1500.0 E30 ; Draw the second line
G92 E0 ; Reset Extruder
G1 Z2.0 F3000 ; Move Z Axis up little to prevent scratching of Heat Bed
G1 X5 Y20 Z0.3 F5000.0 ; Move over to prevent blob squish
G92 E0
G92 E0
G1 F2700 E-5
;LAYER_COUNT:740
;LAYER:0
M107
G0 F6000 X80.382 Y87.342 Z0.25
G0 X76.501 Y96.266
;TYPE:SKIRT
G1 F2700 E0
G1 F1200 X76.51 Y95.577 E0.02865
G1 X76.562 Y94.641 E0.06762
G1 X76.694 Y93.712 E0.10663
G1 X76.904 Y92.798 E0.14562
G1 X77.192 Y91.906 E0.18459
G1 X77.554 Y91.041 E0.22358
G1 X77.989 Y90.21 E0.26257
G1 X78.493 Y89.419 E0.30157
G1 X79.063 Y88.674 E0.34057
G1 X79.694 Y87.98 E0.37956
G1 X80.382 Y87.342 E0.41857
G1 X81.121 Y86.766 E0.45753
G1 X81.907 Y86.254 E0.49653
G1 X82.734 Y85.811 E0.53553
G1 X83.596 Y85.441 E0.57453
G1 X84.486 Y85.145 E0.61353
G1 X85.398 Y84.926 E0.65252
G1 X86.325 Y84.785 E0.6915
G1 X87.201 Y84.725 E0.72801
G1 X87.83 Y84.712 E0.75417
G1 X111.953 Y84.714 E1.75708
G1 X112.648 Y84.724 E1.78598
G1 X113.585 Y84.778 E1.825
G1 X114.513 Y84.911 E1.86398
G1 X115.427 Y85.122 E1.90298
G1 X116.319 Y85.411 E1.94196
G1 X117.184 Y85.775 E1.98098
G1 X118.014 Y86.211 E2.01996
G1 X118.804 Y86.716 E2.05894
G1 X119.548 Y87.286 E2.0979
G1 X120.241 Y87.918 E2.1369
G1 X120.878 Y88.607 E2.17591
G1 X121.454 Y89.347 E2.2149
G1 X121.964 Y90.134 E2.25389
G1 X122.406 Y90.961 E2.29287
G1 X122.776 Y91.823 E2.33187
G1 X123.07 Y92.714 E2.37088
G1 X123.288 Y93.626 E2.40986
G1 X123.428 Y94.553 E2.44884
G1 X123.485 Y95.379 E2.48326
G1 X123.5 Y96.043 E2.51088
G1 X123.499 Y103.687 E2.82868
G1 X123.49 Y104.414 E2.8589
G1 X123.439 Y105.351 E2.89792
G1 X123.307 Y106.279 E2.93689
G1 X123.098 Y107.193 E2.97587
G1 X122.811 Y108.086 E3.01487
G1 X122.449 Y108.952 E3.05389
G1 X122.015 Y109.783 E3.09287
G1 X121.511 Y110.574 E3.13186
G1 X120.942 Y111.319 E3.17083
G1 X120.311 Y112.014 E3.20986
G1 X119.624 Y112.652 E3.24884
G1 X118.885 Y113.229 E3.28782
G1 X118.099 Y113.741 E3.32682
G1 X117.273 Y114.184 E3.36579
G1 X116.411 Y114.556 E3.40482
G1 X115.522 Y114.852 E3.44378
G1 X114.61 Y115.072 E3.48278
G1 X113.683 Y115.213 E3.52176
G1 X112.799 Y115.274 E3.5586
G1 X112.17 Y115.287 E3.58476
G1 X88.065 Y115.286 E4.58693
G1 X87.367 Y115.277 E4.61595
G1 X86.431 Y115.225 E4.65493
G1 X85.502 Y115.093 E4.69394
G1 X84.588 Y114.883 E4.73293
G1 X83.695 Y114.596 E4.77192
G1 X82.83 Y114.233 E4.81092
G1 X81.999 Y113.799 E4.8499
G1 X81.208 Y113.295 E4.8889
G1 X80.463 Y112.725 E4.9279
G1 X79.769 Y112.094 E4.96689
G1 X79.132 Y111.407 E5.00584
G1 X78.555 Y110.667 E5.04486
G1 X78.043 Y109.881 E5.08385
G1 X77.6 Y109.054 E5.12286
G1 X77.229 Y108.193 E5.16184
G1 X76.933 Y107.303 E5.20083
G1 X76.714 Y106.391 E5.23983
G1 X76.573 Y105.464 E5.27881
G1 X76.513 Y104.575 E5.31585
G1 X76.5 Y103.945 E5.34205
G1 X76.501 Y96.266 E5.66131
G0 F6000 X76.901 Y96.272
G1 F1200 X76.91 Y95.583 E5.68996
G1 X76.962 Y94.663 E5.72827
G1 X77.093 Y93.752 E5.76653
G1 X77.304 Y92.856 E5.8048
G1 X77.591 Y91.981 E5.84309
G1 X77.953 Y91.135 E5.88134
G1 X78.387 Y90.323 E5.91962
G1 X78.889 Y89.551 E5.95791
G1 X79.457 Y88.827 E5.99617
G1 X80.086 Y88.154 E6.03446
G1 X80.771 Y87.539 E6.07274
G1 X81.506 Y86.985 E6.111
G1 X82.287 Y86.497 E6.14929
G1 X83.107 Y86.078 E6.18757
G1 X83.96 Y85.733 E6.22583
G1 X84.84 Y85.462 E6.26411
G1 X85.74 Y85.27 E6.30237
G1 X86.654 Y85.156 E6.34066
G1 X87.212 Y85.125 E6.3639
G1 X87.83 Y85.112 E6.3896
G1 X111.948 Y85.114 E7.39231
G1 X112.643 Y85.124 E7.42121
G1 X113.562 Y85.177 E7.45948
G1 X114.473 Y85.31 E7.49775
G1 X115.369 Y85.521 E7.53602
G1 X116.243 Y85.81 E7.5743
G1 X117.089 Y86.173 E7.61257
G1 X117.9 Y86.608 E7.65083
G1 X118.671 Y87.112 E7.68913
G1 X119.395 Y87.68 E7.72738
G1 X120.067 Y88.31 E7.76568
G1 X120.681 Y88.995 E7.80393
G1 X121.234 Y89.732 E7.84223
G1 X121.721 Y90.513 E7.8805
G1 X122.138 Y91.334 E7.91878
G1 X122.483 Y92.187 E7.95704
G1 X122.752 Y93.068 E7.99533
G1 X122.944 Y93.968 E8.03359
G1 X123.057 Y94.882 E8.07188
G1 X123.085 Y95.392 E8.09312
G1 X123.1 Y96.043 E8.12019
G1 X123.099 Y103.682 E8.43778
G1 X123.09 Y104.409 E8.46801
G1 X123.039 Y105.328 E8.50628
G1 X122.908 Y106.24 E8.54458
G1 X122.698 Y107.136 E8.58284
G1 X122.412 Y108.011 E8.62112
G1 X122.051 Y108.858 E8.65939
G1 X121.617 Y109.67 E8.69767
G1 X121.115 Y110.442 E8.73596
G1 X120.547 Y111.167 E8.77425
G1 X119.919 Y111.84 E8.81252
G1 X119.235 Y112.456 E8.85079
G1 X118.5 Y113.01 E8.88905
G1 X117.72 Y113.499 E8.92733
G1 X116.9 Y113.918 E8.96561
G1 X116.047 Y114.264 E9.00388
G1 X115.167 Y114.535 E9.04217
G1 X114.267 Y114.728 E9.08043
G1 X113.353 Y114.843 E9.11873
G1 X112.788 Y114.874 E9.14226
G1 X112.17 Y114.887 E9.16796
G1 X88.07 Y114.886 E10.16992
G1 X87.372 Y114.877 E10.19894
G1 X86.453 Y114.825 E10.23721
G1 X85.542 Y114.694 E10.27547
G1 X84.646 Y114.484 E10.31373
G1 X83.771 Y114.197 E10.35202
G1 X82.924 Y113.835 E10.39032
G1 X82.112 Y113.401 E10.42859
G1 X81.341 Y112.899 E10.46684
G1 X80.616 Y112.331 E10.50514
G1 X79.943 Y111.702 E10.54343
G1 X79.328 Y111.018 E10.58168
G1 X78.774 Y110.283 E10.61994
G1 X78.286 Y109.502 E10.65823
G1 X77.867 Y108.682 E10.69651
G1 X77.521 Y107.829 E10.73478
G1 X77.251 Y106.949 E10.77305
G1 X77.058 Y106.048 E10.81136
G1 X76.944 Y105.135 E10.84961
G1 X76.913 Y104.564 E10.87339
G1 X76.9 Y103.945 E10.89913
G1 X76.901 Y96.272 E11.21814
G0 F6000 X77.301 Y96.277
G1 F1200 X77.31 Y95.588 E11.24678
G1 X77.362 Y94.686 E11.28435
G1 X77.493 Y93.793 E11.32187
G1 X77.703 Y92.914 E11.35944
G1 X77.989 Y92.058 E11.39697
G1 X78.351 Y91.23 E11.43454
G1 X78.784 Y90.438 E11.47206
G1 X79.285 Y89.687 E11.5096
G1 X79.851 Y88.983 E11.54715
G1 X80.477 Y88.332 E11.5847
G1 X81.159 Y87.739 E11.62227
G1 X81.89 Y87.209 E11.65981
G1 X82.664 Y86.745 E11.69733
G1 X83.477 Y86.352 E11.73487
G1 X84.322 Y86.032 E11.77244
G1 X85.192 Y85.788 E11.81001
G1 X86.079 Y85.622 E11.84752
G1 X87.223 Y85.525 E11.89526
G1 X87.83 Y85.512 E11.9205
G1 X111.942 Y85.514 E12.92296
G1 X112.637 Y85.524 E12.95186
G1 X113.538 Y85.577 E12.98938
G1 X114.432 Y85.71 E13.02696
G1 X115.31 Y85.92 E13.06449
G1 X116.166 Y86.208 E13.10204
G1 X116.993 Y86.571 E13.13959
G1 X117.785 Y87.005 E13.17714
G1 X118.535 Y87.507 E13.21466
G1 X119.238 Y88.074 E13.25221
G1 X119.888 Y88.701 E13.28975
G1 X120.48 Y89.383 E13.3273
G1 X121.01 Y90.115 E13.36487
G1 X121.473 Y90.89 E13.4024
G1 X121.865 Y91.704 E13.43997
G1 X122.184 Y92.549 E13.47752
G1 X122.426 Y93.419 E13.51506
G1 X122.591 Y94.307 E13.55261
G1 X122.685 Y95.404 E13.59839
G1 X122.7 Y96.043 E13.62496
G1 X122.699 Y103.677 E13.94235
G1 X122.69 Y104.404 E13.97257
G1 X122.639 Y105.306 E14.01013
G1 X122.508 Y106.2 E14.0477
G1 X122.299 Y107.078 E14.08522
G1 X122.013 Y107.935 E14.12278
G1 X121.652 Y108.763 E14.16034
G1 X121.22 Y109.555 E14.19785
G1 X120.719 Y110.307 E14.23541
G1 X120.153 Y111.011 E14.27297
G1 X119.528 Y111.662 E14.31049
G1 X118.847 Y112.256 E14.34806
G1 X118.116 Y112.787 E14.38562
G1 X117.342 Y113.251 E14.42314
G1 X116.529 Y113.645 E14.4607
G1 X115.685 Y113.965 E14.49823
G1 X114.815 Y114.21 E14.5358
G1 X113.928 Y114.376 E14.57332
G1 X112.777 Y114.474 E14.62135
G1 X112.17 Y114.487 E14.64659
G1 X88.075 Y114.486 E15.64834
G1 X87.377 Y114.477 E15.67737
G1 X86.476 Y114.426 E15.71488
G1 X85.582 Y114.294 E15.75246
G1 X84.704 Y114.085 E15.78998
G1 X83.847 Y113.798 E15.82755
G1 X83.02 Y113.437 E15.86507
G1 X82.227 Y113.004 E15.90263
G1 X81.476 Y112.503 E15.94017
G1 X80.772 Y111.937 E15.97772
G1 X80.121 Y111.311 E16.01527
G1 X79.528 Y110.63 E16.05281
G1 X78.998 Y109.899 E16.09035
G1 X78.534 Y109.124 E16.12791
G1 X78.14 Y108.311 E16.16547
G1 X77.82 Y107.467 E16.20299
G1 X77.576 Y106.597 E16.24056
G1 X77.41 Y105.709 E16.27812
G1 X77.313 Y104.554 E16.32631
G1 X77.3 Y103.945 E16.35163
G1 X77.301 Y96.277 E16.67043
G1 F2700 E11.67043
;MESH:Bra??o rob??tico 3.0(cerra) v15.stl
G0 F6000 X86.835 Y96.277
G0 X87.92 Y96.277
G0 X88.9 Y102.887
;TYPE:WALL-INNER
G1 F2700 E16.67043
G1 F1200 X111.1 Y102.887 E17.5934
G1 X111.1 Y100 E17.71343
G1 X111.1 Y97.113 E17.83345
G1 X88.9 Y97.113 E18.75642
G1 X88.9 Y102.887 E18.99648
G0 F6000 X88.5 Y103.287
G1 F1200 X111.5 Y103.287 E19.95271
G1 X111.5 Y100 E20.08936
G1 X111.5 Y96.713 E20.22602
G1 X88.5 Y96.713 E21.18225
G1 X88.5 Y103.287 E21.45556
G0 F6000 X88.1 Y103.687
G1 F1200 X111.9 Y103.687 E22.44505
G1 X111.9 Y100 E22.59834
G1 X111.9 Y96.313 E22.75163
G1 X88.1 Y96.313 E23.74112
G1 X88.1 Y103.687 E24.04769
G0 F6000 X87.7 Y104.087
;TYPE:WALL-OUTER
G1 F1200 X112.3 Y104.087 E25.07044
G1 X112.3 Y100 E25.24036
G1 X112.3 Y95.913 E25.41028
G1 X87.7 Y95.913 E26.43303
G1 X87.7 Y104.087 E26.77286
G0 F6000 X87.97 Y103.817
G0 X89 Y102.527
G0 X89.26 Y102.527
;TYPE:SKIN
G1 F1200 X110.74 Y102.527 E27.6659
G1 X110.74 Y100 E27.77096
G1 X110.74 Y97.473 E27.87602
G1 X89.26 Y97.473 E28.76905
G1 X89.26 Y102.527 E28.97917
G0 F6000 X89.881 Y102.326
G1 F1200 X89.459 Y101.904 E29.00399
G0 F6000 X89.459 Y101.339
G1 F1200 X90.446 Y102.326 E29.06202
G0 F6000 X91.012 Y102.326
G1 F1200 X89.459 Y100.773 E29.15333
G0 F6000 X89.459 Y100.207
G1 F1200 X91.578 Y102.326 E29.27792
G0 F6000 X92.143 Y102.326
G1 F1200 X89.459 Y99.641 E29.43576
G0 F6000 X89.459 Y99.076
G1 F1200 X92.709 Y102.326 E29.62684
G0 F6000 X93.275 Y102.326
G1 F1200 X89.459 Y98.51 E29.85121
G0 F6000 X89.459 Y97.944
G1 F1200 X93.84 Y102.326 E30.10882
G0 F6000 X94.406 Y102.326
G1 F1200 X89.753 Y97.672 E30.38243
G0 F6000 X90.318 Y97.672
G1 F1200 X94.972 Y102.326 E30.65607
G0 F6000 X95.537 Y102.326
G1 F1200 X90.884 Y97.672 E30.92968
G0 F6000 X91.45 Y97.672
G1 F1200 X96.103 Y102.326 E31.20329
G0 F6000 X96.669 Y102.326
G1 F1200 X92.015 Y97.672 E31.47692
G0 F6000 X92.581 Y97.672
G1 F1200 X97.234 Y102.326 E31.75053
G0 F6000 X97.8 Y102.326
G1 F1200 X93.147 Y97.672 E32.02414
G0 F6000 X93.712 Y97.672
G1 F1200 X98.366 Y102.326 E32.29778
G0 F6000 X98.932 Y102.326
G1 F1200 X94.278 Y97.672 E32.57141
G0 F6000 X94.844 Y97.672
G1 F1200 X99.497 Y102.326 E32.84502
G0 F6000 X100.063 Y102.326
G1 F1200 X95.409 Y97.672 E33.11866
G0 F6000 X95.975 Y97.672
G1 F1200 X100.629 Y102.326 E33.3923
G0 F6000 X101.194 Y102.326
G1 F1200 X96.541 Y97.672 E33.6659
G0 F6000 X97.106 Y97.672
G1 F1200 X101.76 Y102.326 E33.93954
G0 F6000 X102.326 Y102.326
G1 F1200 X97.672 Y97.672 E34.21318
G0 F6000 X98.238 Y97.672
G1 F1200 X102.891 Y102.326 E34.48679
G0 F6000 X103.457 Y102.326
G1 F1200 X98.804 Y97.672 E34.76039
G0 F6000 X99.369 Y97.672
G1 F1200 X104.023 Y102.326 E35.03403
G0 F6000 X104.588 Y102.326
G1 F1200 X99.935 Y97.672 E35.30764
G0 F6000 X100.501 Y97.672
G1 F1200 X105.154 Y102.326 E35.58125
G0 F6000 X105.72 Y102.326
G1 F1200 X101.066 Y97.672 E35.85489
G0 F6000 X101.632 Y97.672
G1 F1200 X106.285 Y102.326 E36.12849
G0 F6000 X106.851 Y102.326
G1 F1200 X102.198 Y97.672 E36.4021
G0 F6000 X102.763 Y97.672
G1 F1200 X107.417 Y102.326 E36.67574
G0 F6000 X107.982 Y102.326
G1 F1200 X103.329 Y97.672 E36.94935
G0 F6000 X103.895 Y97.672
G1 F1200 X108.548 Y102.326 E37.22295
G0 F6000 X109.114 Y102.326
G1 F1200 X104.46 Y97.672 E37.49659
G0 F6000 X105.026 Y97.672
M104 S235
G1 F1200 X109.68 Y102.326 E37.77023
G0 F6000 X110.245 Y102.326
G1 F1200 X105.592 Y97.672 E38.04384
G0 F6000 X106.157 Y97.672
G1 F1200 X110.539 Y102.053 E38.30145
G0 F6000 X110.539 Y101.488
G1 F1200 X106.723 Y97.672 E38.52582
G0 F6000 X107.289 Y97.672
G1 F1200 X110.539 Y100.922 E38.71691
G0 F6000 X110.539 Y100.356
G1 F1200 X107.854 Y97.672 E38.87474
G0 F6000 X108.42 Y97.672
G1 F1200 X110.539 Y99.791 E38.99933
G0 F6000 X110.539 Y99.225
G1 F1200 X108.986 Y97.672 E39.09064
G0 F6000 X109.552 Y97.672
G1 F1200 X110.539 Y98.659 E39.14868
G0 F6000 X110.539 Y98.094
G1 F1200 X110.117 Y97.672 E39.17349
G0 F6000 X110.117 Y96.913
;MESH:NONMESH
G0 F300 X110.117 Y96.913 Z0.5
G0 F6000 X89.072 Y97.285
G0 X88.9 Y103.387
G0 X88.9 Y103.819
;TIME_ELAPSED:57.239809
;LAYER:1
M106 S85
;TYPE:WALL-INNER
;MESH:Bra??o rob??tico 3.0(cerra) v15.stl
G1 F1350 X111.1 Y103.819 E40.09646
G1 X111.1 Y100 E40.25523
G1 X111.1 Y96.181 E40.41401
G1 X88.9 Y96.181 E41.33698
G1 X88.9 Y103.819 E41.65453
G0 F7500 X88.5 Y104.219
G1 F1350 X111.5 Y104.219 E42.61076
G1 X111.5 Y100 E42.78616
G1 X111.5 Y95.781 E42.96157
G1 X88.5 Y95.781 E43.9178
G1 X88.5 Y104.219 E44.26861
G0 F7500 X88.1 Y104.619
G1 F1350 X111.9 Y104.619 E45.2581
G1 X111.9 Y100 E45.45013
G1 X111.9 Y95.381 E45.64217
G1 X88.1 Y95.381 E46.63166
G1 X88.1 Y104.619 E47.01573
G0 F7500 X87.7 Y105.019
;TYPE:WALL-OUTER
G1 F1350 X112.3 Y105.019 E48.03848
G1 X112.3 Y100 E48.24714
G1 X112.3 Y94.981 E48.45581
G1 X87.7 Y94.981 E49.47856
G1 X87.7 Y105.019 E49.89589
G0 F7500 X87.97 Y104.749
G0 X89 Y103.459
G0 X89.26 Y103.459
;TYPE:SKIN
G1 F1350 X110.74 Y103.459 E50.78893
G1 X110.74 Y100 E50.93273
G1 X110.74 Y96.541 E51.07654
G1 X89.26 Y96.541 E51.96958
G1 X89.26 Y103.459 E52.25719
G0 F7500 X89 Y103.459
G0 X89 Y97.216
G0 X89.459 Y97.216
G1 F1350 X89.936 Y96.739 E52.28524
G0 F7500 X90.501 Y96.739
G1 F1350 X89.459 Y97.782 E52.34653
G0 F7500 X89.459 Y98.347
G1 F1350 X91.067 Y96.739 E52.44108
G0 F7500 X91.633 Y96.739
G1 F1350 X89.459 Y98.913 E52.5689
G0 F7500 X89.459 Y99.479
G1 F1350 X92.198 Y96.739 E52.72997
G0 F7500 X92.764 Y96.739
G1 F1350 X89.459 Y100.045 E52.92432
G0 F7500 X89.459 Y100.61
G1 F1350 X93.33 Y96.739 E53.15192
G0 F7500 X93.896 Y96.739
G1 F1350 X89.459 Y101.176 E53.4128
G0 F7500 X89.459 Y101.742
G1 F1350 X94.461 Y96.739 E53.70693
G0 F7500 X95.027 Y96.739
G1 F1350 X89.459 Y102.307 E54.03431
G0 F7500 X89.459 Y102.873
G1 F1350 X95.593 Y96.739 E54.39496
G0 F7500 X96.158 Y96.739
G1 F1350 X89.639 Y103.258 E54.77826
G0 F7500 X90.205 Y103.258
G1 F1350 X96.724 Y96.739 E55.16155
G0 F7500 X97.29 Y96.739
G1 F1350 X90.771 Y103.258 E55.54484
G0 F7500 X91.336 Y103.258
G1 F1350 X97.855 Y96.739 E55.92813
G0 F7500 X98.421 Y96.739
G1 F1350 X91.902 Y103.258 E56.31142
G0 F7500 X92.468 Y103.258
G1 F1350 X98.987 Y96.739 E56.69472
G0 F7500 X99.552 Y96.739
G1 F1350 X93.034 Y103.258 E57.07798
G0 F7500 X93.599 Y103.258
G1 F1350 X100.118 Y96.739 E57.46127
G0 F7500 X100.684 Y96.739
G1 F1350 X94.165 Y103.258 E57.84456
G0 F7500 X94.731 Y103.258
G1 F1350 X101.249 Y96.739 E58.22783
G0 F7500 X101.815 Y96.739
G1 F1350 X95.296 Y103.258 E58.61112
G0 F7500 X95.862 Y103.258
G1 F1350 X102.381 Y96.739 E58.99441
G0 F7500 X102.946 Y96.739
G1 F1350 X96.428 Y103.258 E59.37767
G0 F7500 X96.993 Y103.258
G1 F1350 X103.512 Y96.739 E59.76097
G0 F7500 X104.078 Y96.739
G1 F1350 X97.559 Y103.258 E60.14426
G0 F7500 X98.125 Y103.258
G1 F1350 X104.644 Y96.739 E60.52755
G0 F7500 X105.209 Y96.739
G1 F1350 X98.69 Y103.258 E60.91084
G0 F7500 X99.256 Y103.258
G1 F1350 X105.775 Y96.739 E61.29414
G0 F7500 X106.341 Y96.739
G1 F1350 X99.822 Y103.258 E61.67743
G0 F7500 X100.387 Y103.258
G1 F1350 X106.906 Y96.739 E62.06072
G0 F7500 X107.472 Y96.739
G1 F1350 X100.953 Y103.258 E62.44401
G0 F7500 X101.519 Y103.258
G1 F1350 X108.038 Y96.739 E62.8273
G0 F7500 X108.603 Y96.739
G1 F1350 X102.085 Y103.258 E63.21057
G0 F7500 X102.65 Y103.258
G1 F1350 X109.169 Y96.739 E63.59386
G0 F7500 X109.735 Y96.739
G1 F1350 X103.216 Y103.258 E63.97715
G0 F7500 X103.782 Y103.258
G1 F1350 X110.3 Y96.739 E64.36041
G0 F7500 X110.539 Y97.067
