;FLAVOR:Marlin
;TIME:3387
;Filament used: 2.99776m
;Layer height: 0.25
;MINX:81.661
;MINY:82.095
;MINZ:0.25
;MAXX:117.902
;MAXY:118.34
;MAXZ:46
;Generated with Cura_SteamEngine main
M140 S110
M105
M190 S110
M104 S245
M105
M109 S245
M82 ;absolute extrusion mode
; Ender 3 Custom Start G-code
G92 E0 ; Reset Extruder
G28 ; Home all axes
G1 Z2.0 F3000 ; Move Z Axis up little to prevent scratching of Heat Bed
G1 X0.1 Y20 Z0.3 F5000.0 ; Move to start position
G1 X0.1 Y200.0 Z0.3 F1500.0 E15 ; Draw the first line
G1 X0.4 Y200.0 Z0.3 F5000.0 ; Move to side a little
G1 X0.4 Y20 Z0.3 F1500.0 E30 ; Draw the second line
G92 E0 ; Reset Extruder
G1 Z2.0 F3000 ; Move Z Axis up little to prevent scratching of Heat Bed
G1 X5 Y20 Z0.3 F5000.0 ; Move over to prevent blob squish
G92 E0
G92 E0
G1 F2700 E-5
;LAYER_COUNT:184
;LAYER:0
M107
G0 F6000 X87.072 Y87.296 Z0.25
G0 X81.661 Y99.971
;TYPE:SKIRT
G1 F2700 E0
G1 F1200 X81.674 Y99.495 E0.0198
G1 X81.724 Y98.707 E0.05262
G1 X81.775 Y98.194 E0.07406
G1 X81.89 Y97.359 E0.1091
G1 X81.988 Y96.807 E0.13241
G1 X82.175 Y95.954 E0.16871
G1 X82.314 Y95.421 E0.19162
G1 X82.537 Y94.675 E0.22399
G1 X82.73 Y94.104 E0.24905
G1 X82.987 Y93.419 E0.27946
G1 X83.136 Y93.059 E0.29566
G1 X83.446 Y92.373 E0.32696
G1 X83.741 Y91.793 E0.35401
G1 X84.034 Y91.257 E0.37941
G1 X84.489 Y90.498 E0.4162
G1 X84.783 Y90.05 E0.43848
G1 X85.228 Y89.422 E0.47048
G1 X85.531 Y89.024 E0.49127
G1 X85.979 Y88.473 E0.5208
G1 X86.27 Y88.138 E0.53925
G1 X86.77 Y87.6 E0.56978
G1 X87.072 Y87.296 E0.5876
G1 X87.485 Y86.901 E0.61136
G1 X87.808 Y86.608 E0.62949
G1 X88.361 Y86.138 E0.65966
G1 X88.763 Y85.819 E0.681
G1 X89.409 Y85.344 E0.71433
G1 X89.804 Y85.075 E0.7342
G1 X90.543 Y84.614 E0.77041
G1 X91.044 Y84.328 E0.7944
G1 X91.723 Y83.971 E0.82629
G1 X92.105 Y83.787 E0.84392
G1 X92.664 Y83.537 E0.86938
G1 X93.369 Y83.254 E0.90096
G1 X93.742 Y83.117 E0.91748
G1 X94.489 Y82.873 E0.95015
G1 X95.034 Y82.716 E0.97373
G1 X95.774 Y82.53 E1.00546
G1 X96.194 Y82.44 E1.02332
G1 X96.783 Y82.331 E1.04822
G1 X97.502 Y82.228 E1.07842
G1 X97.966 Y82.176 E1.09783
G1 X98.774 Y82.116 E1.13151
G1 X99.328 Y82.095 E1.15456
G1 X100.2 Y82.096 E1.19082
G1 X100.731 Y82.118 E1.21291
G1 X101.51 Y82.178 E1.24539
G1 X102.006 Y82.234 E1.26615
G1 X102.808 Y82.355 E1.29987
G1 X103.445 Y82.475 E1.32682
G1 X104.293 Y82.664 E1.36294
G1 X104.879 Y82.821 E1.38816
G1 X105.634 Y83.055 E1.42102
G1 X106.025 Y83.189 E1.43821
G1 X106.737 Y83.461 E1.46989
G1 X107.116 Y83.621 E1.487
G1 X107.619 Y83.848 E1.50994
G1 X108.201 Y84.137 E1.53696
G1 X108.527 Y84.309 E1.55228
G1 X109.119 Y84.645 E1.58058
G1 X109.801 Y85.077 E1.61415
G1 X110.241 Y85.377 E1.63629
G1 X110.859 Y85.831 E1.66817
G1 X111.395 Y86.254 E1.69655
G1 X112.322 Y87.075 E1.74804
G1 X112.758 Y87.507 E1.77355
G1 X113.33 Y88.118 E1.80835
G1 X113.667 Y88.507 E1.82975
G1 X114.208 Y89.184 E1.86578
G1 X114.533 Y89.625 E1.88855
G1 X114.998 Y90.308 E1.92291
G1 X115.272 Y90.745 E1.94435
G1 X115.708 Y91.507 E1.98085
G1 X115.958 Y91.987 E2.00335
G1 X116.314 Y92.737 E2.03787
G1 X116.523 Y93.225 E2.05994
G1 X116.84 Y94.059 E2.09703
G1 X117.011 Y94.569 E2.1194
G1 X117.221 Y95.269 E2.14978
G1 X117.323 Y95.657 E2.16646
G1 X117.51 Y96.504 E2.20252
G1 X117.689 Y97.498 E2.24451
G1 X117.819 Y98.46 E2.28487
G1 X117.842 Y98.715 E2.29551
G1 X117.883 Y99.45 E2.32612
G1 X117.902 Y100.277 E2.36051
G1 X117.883 Y101.224 E2.39989
G1 X117.837 Y101.861 E2.42644
G1 X117.798 Y102.263 E2.44324
G1 X117.674 Y103.155 E2.48068
G1 X117.559 Y103.792 E2.50759
G1 X117.347 Y104.729 E2.54753
G1 X117.207 Y105.243 E2.56968
G1 X116.979 Y105.994 E2.60231
G1 X116.685 Y106.778 E2.63712
G1 X116.415 Y107.433 E2.66657
G1 X116.106 Y108.121 E2.69793
G1 X115.64 Y109.004 E2.73944
G1 X115.2 Y109.753 E2.77555
G1 X114.602 Y110.664 E2.82086
G1 X114.238 Y111.163 E2.84654
G1 X113.571 Y111.99 E2.89071
G1 X113.314 Y112.279 E2.90679
G1 X112.912 Y112.707 E2.9312
G1 X112.431 Y113.193 E2.95963
G1 X111.849 Y113.743 E2.99292
G1 X111.299 Y114.211 E3.02295
G1 X110.921 Y114.512 E3.04304
G1 X110.358 Y114.932 E3.07224
G1 X110.015 Y115.171 E3.08962
G1 X109.291 Y115.64 E3.12548
G1 X108.711 Y115.981 E3.15346
G1 X108.235 Y116.241 E3.17601
G1 X107.565 Y116.578 E3.20719
G1 X107.209 Y116.742 E3.22348
G1 X106.691 Y116.964 E3.24691
G1 X106.012 Y117.226 E3.27717
G1 X105.565 Y117.384 E3.29688
G1 X104.88 Y117.601 E3.32676
G1 X104.5 Y117.708 E3.34317
G1 X104.005 Y117.835 E3.36441
G1 X103.287 Y117.991 E3.39496
G1 X102.853 Y118.072 E3.41332
G1 X102.037 Y118.193 E3.44761
G1 X101.4 Y118.263 E3.47426
G1 X100.45 Y118.326 E3.51384
G1 X99.839 Y118.34 E3.53925
G1 X98.945 Y118.324 E3.57642
G1 X98.363 Y118.29 E3.60066
G1 X97.586 Y118.217 E3.63311
G1 X97.117 Y118.156 E3.65277
G1 X96.383 Y118.035 E3.6837
G1 X95.907 Y117.94 E3.70388
G1 X95.29 Y117.798 E3.7302
G1 X94.66 Y117.628 E3.75733
G1 X94.33 Y117.53 E3.77164
G1 X93.419 Y117.216 E3.8117
G1 X93.095 Y117.088 E3.82619
G1 X92.458 Y116.817 E3.85497
G1 X91.753 Y116.48 E3.88745
G1 X91.162 Y116.171 E3.91518
G1 X90.359 Y115.707 E3.95374
G1 X89.931 Y115.435 E3.97482
G1 X89.377 Y115.061 E4.00261
G1 X88.979 Y114.771 E4.02309
G1 X88.628 Y114.503 E4.04145
G1 X88.026 Y114.009 E4.07382
G1 X87.542 Y113.582 E4.10066
G1 X86.818 Y112.881 E4.14255
G1 X86.418 Y112.457 E4.16679
G1 X85.896 Y111.863 E4.19966
G1 X85.559 Y111.45 E4.22183
G1 X85.215 Y111.005 E4.24521
G1 X84.86 Y110.511 E4.2705
G1 X84.628 Y110.17 E4.28765
G1 X84.195 Y109.479 E4.32155
G1 X83.91 Y108.985 E4.34526
G1 X83.65 Y108.507 E4.36789
G1 X83.35 Y107.901 E4.396
G1 X83.195 Y107.565 E4.41138
G1 X82.907 Y106.881 E4.44224
G1 X82.692 Y106.318 E4.46729
G1 X82.348 Y105.261 E4.51351
G1 X82.133 Y104.423 E4.54947
G1 X82.041 Y104.01 E4.56707
G1 X81.913 Y103.335 E4.59563
G1 X81.858 Y102.987 E4.61028
G1 X81.764 Y102.216 E4.64257
G1 X81.702 Y101.498 E4.67253
G1 X81.662 Y100.709 E4.70538
G1 X81.661 Y99.971 E4.73606
G0 F6000 X82.061 Y99.982
G1 F1200 X82.074 Y99.506 E4.75586
G1 X82.122 Y98.746 E4.78752
G1 X82.173 Y98.233 E4.80895
G1 X82.284 Y97.429 E4.84269
G1 X82.382 Y96.877 E4.866
G1 X82.562 Y96.055 E4.90099
G1 X82.701 Y95.522 E4.92389
G1 X82.916 Y94.803 E4.95509
G1 X83.109 Y94.232 E4.98015
G1 X83.357 Y93.572 E5.00946
G1 X83.506 Y93.212 E5.02566
G1 X83.807 Y92.544 E5.05612
G1 X84.092 Y91.985 E5.0822
G1 X84.385 Y91.449 E5.1076
G1 X84.824 Y90.717 E5.14309
G1 X85.118 Y90.269 E5.16537
G1 X85.546 Y89.664 E5.19618
G1 X85.849 Y89.266 E5.21697
G1 X86.281 Y88.736 E5.2454
G1 X86.572 Y88.401 E5.26385
G1 X87.054 Y87.881 E5.29333
G1 X87.356 Y87.577 E5.31114
G1 X87.754 Y87.197 E5.33402
G1 X88.077 Y86.904 E5.35215
G1 X88.61 Y86.452 E5.38121
G1 X89.012 Y86.133 E5.40254
G1 X89.634 Y85.675 E5.43466
G1 X90.029 Y85.406 E5.45452
G1 X90.741 Y84.961 E5.48943
G1 X91.242 Y84.675 E5.51342
G1 X91.897 Y84.331 E5.54418
G1 X92.279 Y84.147 E5.5618
G1 X92.817 Y83.906 E5.58631
G1 X93.506 Y83.63 E5.61717
G1 X93.879 Y83.493 E5.63369
G1 X94.6 Y83.257 E5.66523
G1 X95.145 Y83.1 E5.68881
G1 X95.858 Y82.921 E5.71937
G1 X96.278 Y82.831 E5.73723
G1 X96.846 Y82.726 E5.76125
G1 X97.546 Y82.626 E5.79065
G1 X98.01 Y82.574 E5.81006
G1 X98.789 Y82.516 E5.84253
G1 X99.343 Y82.495 E5.86558
G1 X100.184 Y82.496 E5.90055
G1 X100.715 Y82.518 E5.92264
G1 X101.465 Y82.576 E5.95392
G1 X101.961 Y82.632 E5.97467
G1 X102.734 Y82.748 E6.00717
G1 X103.371 Y82.868 E6.03412
G1 X104.2 Y83.053 E6.06943
G1 X104.765 Y83.204 E6.09374
G1 X105.088 Y83.3 E6.10775
G1 X105.896 Y83.568 E6.14315
G1 X106.582 Y83.83 E6.17368
G1 X106.961 Y83.99 E6.19078
G1 X107.445 Y84.209 E6.21287
G1 X108.014 Y84.491 E6.23927
G1 X108.34 Y84.663 E6.25459
G1 X108.911 Y84.987 E6.28189
G1 X109.575 Y85.408 E6.31457
G1 X110.015 Y85.708 E6.33671
G1 X110.611 Y86.145 E6.36744
G1 X111.147 Y86.568 E6.39583
G1 X112.041 Y87.359 E6.44546
G1 X112.477 Y87.791 E6.47097
G1 X113.028 Y88.38 E6.50451
G1 X113.365 Y88.769 E6.5259
G1 X113.886 Y89.421 E6.5606
G1 X114.211 Y89.862 E6.58338
G1 X114.659 Y90.52 E6.61647
G1 X114.933 Y90.957 E6.63792
G1 X115.353 Y91.691 E6.67308
G1 X115.603 Y92.171 E6.69558
G1 X115.946 Y92.895 E6.72889
G1 X116.155 Y93.383 E6.75096
G1 X116.461 Y94.186 E6.78668
G1 X116.632 Y94.696 E6.80905
G1 X116.834 Y95.371 E6.83834
G1 X116.936 Y95.759 E6.85502
G1 X117.116 Y96.575 E6.88976
G1 X117.295 Y97.569 E6.93175
G1 X117.42 Y98.496 E6.97064
G1 X117.443 Y98.751 E6.98128
G1 X117.483 Y99.46 E7.01081
G1 X117.502 Y100.287 E7.0452
G1 X117.484 Y101.199 E7.08312
G1 X117.438 Y101.823 E7.10914
G1 X117.399 Y102.225 E7.12593
G1 X117.28 Y103.084 E7.16198
G1 X117.165 Y103.721 E7.18889
G1 X116.961 Y104.624 E7.22738
G1 X116.821 Y105.138 E7.24953
G1 X116.6 Y105.866 E7.28116
G1 X116.315 Y106.626 E7.31491
G1 X116.045 Y107.281 E7.34436
G1 X115.744 Y107.95 E7.37486
G1 X115.295 Y108.801 E7.41486
G1 X114.855 Y109.55 E7.45098
G1 X114.279 Y110.428 E7.49464
G1 X113.915 Y110.927 E7.52032
G1 X113.272 Y111.724 E7.56289
G1 X113.015 Y112.013 E7.57897
G1 X112.628 Y112.425 E7.60247
G1 X112.147 Y112.911 E7.6309
G1 X111.58 Y113.447 E7.66334
G1 X111.05 Y113.898 E7.69227
G1 X110.672 Y114.199 E7.71236
G1 X110.129 Y114.604 E7.74052
G1 X109.786 Y114.843 E7.7579
G1 X109.078 Y115.302 E7.79298
G1 X108.519 Y115.63 E7.81993
G1 X108.043 Y115.89 E7.84248
G1 X107.397 Y116.215 E7.87254
G1 X107.041 Y116.379 E7.88884
G1 X106.543 Y116.593 E7.91137
G1 X105.879 Y116.849 E7.94096
G1 X105.432 Y117.007 E7.96067
G1 X104.772 Y117.216 E7.98945
G1 X103.915 Y117.446 E8.02634
G1 X103.214 Y117.598 E8.05617
G1 X102.78 Y117.679 E8.07452
G1 X101.993 Y117.796 E8.1076
G1 X101.356 Y117.866 E8.13424
G1 X100.441 Y117.926 E8.17237
G1 X99.83 Y117.94 E8.19777
G1 X98.969 Y117.925 E8.23358
G1 X98.387 Y117.891 E8.25781
G1 X97.638 Y117.82 E8.28909
G1 X97.169 Y117.759 E8.30876
G1 X96.461 Y117.643 E8.33858
G1 X95.985 Y117.548 E8.35876
G1 X95.391 Y117.411 E8.38411
G1 X94.773 Y117.244 E8.41072
G1 X94.443 Y117.146 E8.42504
G1 X93.566 Y116.844 E8.4636
G1 X93.242 Y116.716 E8.47808
G1 X92.617 Y116.45 E8.50632
G1 X91.939 Y116.126 E8.53756
G1 X91.348 Y115.817 E8.56529
G1 X90.574 Y115.369 E8.60247
G1 X90.146 Y115.097 E8.62355
G1 X89.605 Y114.733 E8.65066
G1 X89.221 Y114.453 E8.67042
G1 X88.87 Y114.185 E8.68878
G1 X88.29 Y113.709 E8.71998
G1 X87.806 Y113.282 E8.74681
G1 X87.109 Y112.607 E8.78715
G1 X86.709 Y112.183 E8.81138
G1 X86.206 Y111.61 E8.84308
G1 X85.869 Y111.197 E8.86524
G1 X85.537 Y110.769 E8.88776
G1 X85.191 Y110.286 E8.91247
G1 X84.959 Y109.945 E8.92961
G1 X84.541 Y109.279 E8.9623
G1 X84.256 Y108.785 E8.98602
G1 X84.006 Y108.325 E9.00778
G1 X83.713 Y107.733 E9.03524
G1 X83.558 Y107.397 E9.05063
G1 X83.28 Y106.739 E9.08033
G1 X83.065 Y106.176 E9.10538
G1 X82.734 Y105.157 E9.14993
G1 X82.636 Y104.794 E9.16556
G1 X82.432 Y103.923 E9.20275
G1 X82.308 Y103.273 E9.23026
G1 X82.253 Y102.925 E9.24491
G1 X82.162 Y102.182 E9.27603
G1 X82.1 Y101.464 E9.30599
G1 X82.062 Y100.703 E9.33767
G1 X82.061 Y99.982 E9.36765
G0 F6000 X82.461 Y99.993
G1 F1200 X82.474 Y99.517 E9.38744
G1 X82.52 Y98.786 E9.41789
G1 X82.571 Y98.273 E9.43933
G1 X82.678 Y97.499 E9.47181
G1 X82.776 Y96.947 E9.49512
G1 X82.949 Y96.156 E9.52878
G1 X83.088 Y95.623 E9.55169
G1 X83.295 Y94.931 E9.58171
G1 X83.488 Y94.36 E9.60677
G1 X83.726 Y93.725 E9.63497
G1 X83.875 Y93.365 E9.65117
G1 X84.169 Y92.715 E9.68083
G1 X84.443 Y92.177 E9.70593
G1 X84.736 Y91.641 E9.73132
G1 X85.158 Y90.937 E9.76545
G1 X85.452 Y90.489 E9.78773
G1 X85.864 Y89.906 E9.81741
G1 X86.167 Y89.508 E9.8382
G1 X86.583 Y88.998 E9.86556
G1 X86.874 Y88.663 E9.88401
G1 X87.338 Y88.163 E9.91237
G1 X87.64 Y87.859 E9.93019
G1 X88.023 Y87.493 E9.95221
G1 X88.346 Y87.2 E9.97034
G1 X88.859 Y86.765 E9.99831
G1 X89.261 Y86.446 E10.01964
G1 X89.86 Y86.005 E10.05057
G1 X90.255 Y85.736 E10.07044
G1 X90.939 Y85.309 E10.10396
G1 X91.44 Y85.023 E10.12794
G1 X92.071 Y84.691 E10.15759
G1 X92.453 Y84.507 E10.17522
G1 X92.97 Y84.276 E10.19876
G1 X93.644 Y84.005 E10.22896
G1 X94.017 Y83.868 E10.24548
G1 X94.71 Y83.642 E10.27579
G1 X95.255 Y83.485 E10.29937
G1 X95.942 Y83.312 E10.32882
G1 X96.362 Y83.222 E10.34668
G1 X96.908 Y83.121 E10.36976
G1 X97.591 Y83.023 E10.39845
G1 X98.055 Y82.971 E10.41786
G1 X98.805 Y82.915 E10.44913
G1 X99.359 Y82.894 E10.47218
G1 X100.167 Y82.896 E10.50577
G1 X100.698 Y82.918 E10.52787
G1 X101.42 Y82.973 E10.55797
G1 X101.916 Y83.029 E10.57872
G1 X102.66 Y83.141 E10.61
G1 X103.297 Y83.261 E10.63695
G1 X104.108 Y83.442 E10.6715
G1 X104.651 Y83.588 E10.69488
G1 X105.375 Y83.812 E10.72638
G1 X105.766 Y83.946 E10.74357
G1 X106.426 Y84.198 E10.77294
G1 X106.805 Y84.358 E10.79004
G1 X107.271 Y84.569 E10.81131
G1 X107.828 Y84.845 E10.83716
G1 X108.154 Y85.017 E10.85248
G1 X108.703 Y85.328 E10.87871
G1 X109.35 Y85.738 E10.91056
G1 X109.79 Y86.038 E10.9327
G1 X110.363 Y86.459 E10.96226
G1 X110.899 Y86.882 E10.99065
G1 X111.759 Y87.643 E11.03839
G1 X112.195 Y88.075 E11.06391
G1 X112.725 Y88.642 E11.09618
G1 X113.062 Y89.031 E11.11757
G1 X113.564 Y89.659 E11.151
G1 X113.889 Y90.1 E11.17378
G1 X114.32 Y90.733 E11.20561
G1 X114.594 Y91.17 E11.22706
G1 X114.999 Y91.876 E11.2609
G1 X115.249 Y92.356 E11.2834
G1 X115.578 Y93.052 E11.3154
G1 X115.787 Y93.54 E11.33748
G1 X116.082 Y94.313 E11.37187
G1 X116.253 Y94.823 E11.39424
G1 X116.447 Y95.473 E11.42244
G1 X116.549 Y95.861 E11.43912
G1 X116.723 Y96.646 E11.47255
G1 X116.902 Y97.64 E11.51454
G1 X117.022 Y98.532 E11.55196
G1 X117.045 Y98.787 E11.5626
G1 X117.083 Y99.469 E11.591
G1 X117.102 Y100.296 E11.62539
G1 X117.085 Y101.173 E11.66186
G1 X117.04 Y101.784 E11.68733
G1 X117.001 Y102.186 E11.70412
G1 X116.887 Y103.013 E11.73883
G1 X116.772 Y103.65 E11.76574
G1 X116.575 Y104.519 E11.80279
G1 X116.435 Y105.033 E11.82494
G1 X116.22 Y105.738 E11.85558
G1 X115.945 Y106.473 E11.88821
G1 X115.675 Y107.128 E11.91766
G1 X115.382 Y107.78 E11.94738
G1 X114.95 Y108.598 E11.98584
G1 X114.51 Y109.347 E12.02195
G1 X113.956 Y110.192 E12.06396
G1 X113.592 Y110.691 E12.08964
G1 X112.973 Y111.458 E12.13062
G1 X112.716 Y111.747 E12.1467
G1 X112.344 Y112.144 E12.16932
G1 X111.863 Y112.63 E12.19774
G1 X111.311 Y113.151 E12.2293
G1 X110.801 Y113.585 E12.25714
G1 X110.423 Y113.886 E12.27723
G1 X109.9 Y114.276 E12.30436
G1 X109.557 Y114.515 E12.32174
G1 X108.866 Y114.963 E12.35597
G1 X108.328 Y115.279 E12.38192
G1 X107.852 Y115.539 E12.40446
G1 X107.23 Y115.851 E12.4334
G1 X106.874 Y116.015 E12.44969
G1 X106.394 Y116.221 E12.47141
G1 X105.745 Y116.472 E12.50034
G1 X105.298 Y116.63 E12.52005
G1 X104.664 Y116.831 E12.5477
G1 X104.284 Y116.938 E12.56411
G1 X103.824 Y117.056 E12.58386
G1 X103.14 Y117.205 E12.61296
G1 X102.706 Y117.286 E12.63132
G1 X101.949 Y117.398 E12.66313
G1 X101.312 Y117.468 E12.68977
G1 X100.432 Y117.526 E12.72644
G1 X99.821 Y117.54 E12.75185
G1 X98.992 Y117.526 E12.78632
G1 X98.41 Y117.492 E12.81056
G1 X97.689 Y117.424 E12.84067
G1 X97.22 Y117.363 E12.86033
G1 X96.54 Y117.251 E12.88898
G1 X96.064 Y117.156 E12.90916
G1 X95.491 Y117.024 E12.93361
G1 X94.887 Y116.861 E12.95962
G1 X94.557 Y116.763 E12.97393
G1 X93.713 Y116.472 E13.01105
G1 X93.389 Y116.344 E13.02553
G1 X92.777 Y116.084 E13.05317
G1 X92.124 Y115.771 E13.08328
G1 X91.533 Y115.462 E13.11101
G1 X90.788 Y115.032 E13.14677
G1 X90.36 Y114.76 E13.16785
G1 X89.833 Y114.404 E13.19429
G1 X89.113 Y113.867 E13.23164
G1 X88.555 Y113.409 E13.26165
G1 X88.071 Y112.982 E13.28848
G1 X87.4 Y112.332 E13.32732
G1 X87 Y111.908 E13.35156
G1 X86.516 Y111.358 E13.38202
G1 X86.179 Y110.945 E13.40418
G1 X85.86 Y110.532 E13.42587
G1 X85.522 Y110.061 E13.44998
G1 X85.29 Y109.72 E13.46712
G1 X84.888 Y109.079 E13.49858
G1 X84.603 Y108.585 E13.52229
G1 X84.362 Y108.142 E13.54326
G1 X84.076 Y107.566 E13.57
G1 X83.921 Y107.23 E13.58538
G1 X83.654 Y106.596 E13.61398
