;FLAVOR:Marlin
;TIME:2154
;Filament used: 2.01668m
;Layer height: 0.25
;MINX:72.509
;MINY:72.509
;MINZ:0.25
;MAXX:127.491
;MAXY:127.491
;MAXZ:10
;Generated with Cura_SteamEngine main
M140 S110
M105
M190 S110
M104 S245
M105
M109 S245
M82 ;absolute extrusion mode
; Ender 3 Custom Start G-code
G92 E0 ; Reset Extruder
G28 ; Home all axes
G1 Z2.0 F3000 ; Move Z Axis up little to prevent scratching of Heat Bed
G1 X0.1 Y20 Z0.3 F5000.0 ; Move to start position
G1 X0.1 Y200.0 Z0.3 F1500.0 E15 ; Draw the first line
G1 X0.4 Y200.0 Z0.3 F5000.0 ; Move to side a little
G1 X0.4 Y20 Z0.3 F1500.0 E30 ; Draw the second line
G92 E0 ; Reset Extruder
G1 Z2.0 F3000 ; Move Z Axis up little to prevent scratching of Heat Bed
G1 X5 Y20 Z0.3 F5000.0 ; Move over to prevent blob squish
G92 E0
G92 E0
G1 F2700 E-5
;LAYER_COUNT:40
;LAYER:0
M107
G0 F6000 X82.039 Y79.267 Z0.25
G0 X75.976 Y86.918
;TYPE:SKIRT
G1 F2700 E0
G1 F1200 X76.291 Y86.271 E0.02992
G1 X76.599 Y85.666 E0.05814
G1 X77.062 Y84.85 E0.09715
G1 X77.542 Y84.144 E0.13264
G1 X78.125 Y83.355 E0.17343
G1 X78.714 Y82.625 E0.21243
G1 X79.237 Y82.071 E0.2441
G1 X81.226 Y80.104 E0.3604
G1 X82.039 Y79.267 E0.40891
G1 X82.721 Y78.623 E0.44791
G1 X83.576 Y77.952 E0.4931
G1 X84.39 Y77.376 E0.53456
G1 X85.178 Y76.867 E0.57356
G1 X85.803 Y76.527 E0.60314
G1 X88.289 Y75.277 E0.71882
G1 X89.212 Y74.791 E0.76219
G1 X90.059 Y74.389 E0.80117
G1 X90.515 Y74.209 E0.82155
G1 X90.971 Y74.04 E0.84177
G1 X91.501 Y73.858 E0.86507
G1 X92.113 Y73.666 E0.89174
G1 X93.019 Y73.424 E0.93072
G1 X93.788 Y73.282 E0.96323
G1 X94.862 Y73.122 E1.00838
G1 X94.999 Y73.091 E1.01422
G1 X96.278 Y72.88 E1.06811
G1 X96.437 Y72.861 E1.07477
G1 X97.843 Y72.641 E1.13394
G1 X98.775 Y72.536 E1.17293
G1 X99.643 Y72.509 E1.20903
G1 X100.618 Y72.518 E1.24957
G1 X101.554 Y72.567 E1.28854
G1 X102.294 Y72.663 E1.31956
G1 X105.056 Y73.115 E1.43592
G1 X106.226 Y73.285 E1.48507
G1 X107.147 Y73.459 E1.52404
G1 X108.105 Y73.729 E1.56542
G1 X109.032 Y74.036 E1.60602
G1 X109.909 Y74.368 E1.64501
G1 X110.624 Y74.706 E1.67789
G1 X113.081 Y75.976 E1.79288
G1 X113.728 Y76.291 E1.8228
G1 X114.326 Y76.595 E1.85069
G1 X115.142 Y77.057 E1.88967
G1 X115.865 Y77.548 E1.92601
G1 X116.654 Y78.132 E1.96682
G1 X117.384 Y78.722 E2.00584
G1 X117.931 Y79.239 E2.03713
G1 X119.927 Y81.257 E2.15514
G1 X120.736 Y82.044 E2.20206
G1 X121.38 Y82.726 E2.24106
G1 X122.042 Y83.569 E2.28562
G1 X122.619 Y84.383 E2.3271
G1 X123.128 Y85.17 E2.36607
G1 X123.473 Y85.803 E2.39604
G1 X124.723 Y88.289 E2.51173
G1 X125.209 Y89.212 E2.5551
G1 X125.611 Y90.059 E2.59408
G1 X125.791 Y90.515 E2.61446
G1 X125.96 Y90.971 E2.63468
G1 X126.142 Y91.504 E2.65809
G1 X126.331 Y92.107 E2.68437
G1 X126.574 Y93.013 E2.72336
G1 X126.712 Y93.758 E2.75486
G1 X126.904 Y95.034 E2.80851
G1 X127.155 Y96.536 E2.87182
G1 X127.36 Y97.852 E2.9272
G1 X127.465 Y98.784 E2.96619
G1 X127.491 Y99.647 E3.00208
G1 X127.482 Y100.618 E3.04246
G1 X127.433 Y101.555 E3.08147
G1 X127.337 Y102.294 E3.11245
G1 X126.889 Y105.03 E3.22771
G1 X126.719 Y106.21 E3.27728
G1 X126.546 Y107.132 E3.31628
G1 X126.262 Y108.134 E3.35958
G1 X125.944 Y109.084 E3.40123
G1 X125.609 Y109.96 E3.44022
G1 X125.286 Y110.64 E3.47152
G1 X124.015 Y113.101 E3.58667
G1 X123.481 Y114.182 E3.6368
G1 X123.03 Y115.004 E3.67578
G1 X122.459 Y115.856 E3.71842
G1 X121.869 Y116.653 E3.75965
G1 X121.279 Y117.382 E3.79864
G1 X120.763 Y117.929 E3.8299
G1 X118.774 Y119.896 E3.94621
G1 X117.961 Y120.733 E3.99472
G1 X117.279 Y121.377 E4.03372
G1 X116.424 Y122.048 E4.0789
G1 X115.61 Y122.624 E4.12036
G1 X114.822 Y123.133 E4.15936
G1 X114.197 Y123.473 E4.18894
G1 X111.711 Y124.723 E4.30463
G1 X110.788 Y125.209 E4.348
G1 X109.941 Y125.611 E4.38698
G1 X109.485 Y125.791 E4.40736
G1 X109.029 Y125.96 E4.42758
G1 X108.499 Y126.142 E4.45087
G1 X107.887 Y126.334 E4.47754
G1 X106.981 Y126.576 E4.51653
G1 X106.218 Y126.717 E4.54879
G1 X104.949 Y126.906 E4.60213
G1 X103.457 Y127.156 E4.66502
G1 X102.146 Y127.36 E4.72018
G1 X101.214 Y127.465 E4.75918
G1 X100.353 Y127.491 E4.79499
G1 X99.382 Y127.482 E4.83536
G1 X98.445 Y127.433 E4.87437
G1 X97.706 Y127.337 E4.90535
G1 X94.929 Y126.882 E5.02235
G1 X93.775 Y126.715 E5.07082
G1 X92.853 Y126.541 E5.10983
G1 X91.877 Y126.266 E5.15199
G1 X90.943 Y125.955 E5.19292
G1 X90.066 Y125.621 E5.23193
G1 X89.367 Y125.29 E5.26409
G1 X86.901 Y124.016 E5.37949
G1 X86.272 Y123.709 E5.40858
G1 X85.674 Y123.405 E5.43647
G1 X84.858 Y122.943 E5.47546
G1 X84.135 Y122.452 E5.5118
G1 X83.346 Y121.868 E5.55261
G1 X82.616 Y121.278 E5.59163
G1 X82.069 Y120.761 E5.62292
G1 X80.079 Y118.748 E5.7406
G1 X79.266 Y117.959 E5.7877
G1 X78.621 Y117.278 E5.8267
G1 X77.949 Y116.421 E5.87198
G1 X77.374 Y115.608 E5.91338
G1 X76.866 Y114.82 E5.95236
G1 X76.527 Y114.197 E5.98185
G1 X75.298 Y111.753 E6.09558
G1 X74.789 Y110.786 E6.14101
G1 X74.388 Y109.938 E6.18001
G1 X74.206 Y109.477 E6.20062
G1 X74.038 Y109.023 E6.22074
G1 X73.854 Y108.484 E6.24442
G1 X73.662 Y107.869 E6.27121
G1 X73.421 Y106.963 E6.31018
G1 X73.284 Y106.222 E6.34151
G1 X73.14 Y105.263 E6.38183
G1 X73.09 Y105.001 E6.39292
G1 X72.879 Y103.721 E6.44685
G1 X72.858 Y103.543 E6.45431
G1 X72.642 Y102.168 E6.51217
G1 X72.536 Y101.236 E6.55117
G1 X72.509 Y100.363 E6.58748
G1 X72.518 Y99.383 E6.62823
G1 X72.567 Y98.446 E6.66724
G1 X72.663 Y97.706 E6.69826
G1 X73.111 Y94.969 E6.81357
G1 X73.215 Y94.223 E6.84488
G1 X73.319 Y93.567 E6.8725
G1 X73.509 Y92.649 E6.91147
G1 X73.745 Y91.845 E6.94631
G1 X74.058 Y90.911 E6.98726
G1 X74.394 Y90.035 E7.02627
G1 X74.716 Y89.356 E7.05751
G1 X75.976 Y86.918 E7.17161
G1 F2700 E2.17161
G0 F6000 X73.902 Y95.09
G1 F2700 E7.17161
G1 F1200 X74.007 Y94.333 E7.20338
G1 X74.108 Y93.696 E7.2302
G1 X74.293 Y92.812 E7.26774
G1 X74.504 Y92.099 E7.29866
G1 X74.817 Y91.165 E7.33961
G1 X75.141 Y90.322 E7.37716
G1 X75.426 Y89.724 E7.4047
G1 X76.707 Y87.245 E7.52071
G1 X77.011 Y86.621 E7.54957
G1 X77.311 Y86.031 E7.57709
G1 X77.758 Y85.246 E7.61464
G1 X78.186 Y84.619 E7.64621
G1 X78.769 Y83.83 E7.68699
G1 X79.337 Y83.129 E7.7245
G1 X79.8 Y82.639 E7.75253
G1 X81.797 Y80.664 E7.8693
G1 X82.613 Y79.824 E7.91799
G1 X83.271 Y79.205 E7.95555
G1 X84.038 Y78.605 E7.99604
G1 X84.852 Y78.029 E8.03749
G1 X85.612 Y77.54 E8.07507
G1 X86.162 Y77.242 E8.10107
G1 X88.622 Y76.005 E8.21555
G1 X89.585 Y75.498 E8.2608
G1 X90.793 Y74.959 E8.31579
G1 X91.249 Y74.79 E8.33601
G1 X91.741 Y74.622 E8.35763
G1 X92.353 Y74.43 E8.38429
G1 X93.226 Y74.198 E8.42185
G1 X93.905 Y74.073 E8.45055
G1 X94.912 Y73.923 E8.49288
G1 X95.129 Y73.88 E8.50208
G1 X96.408 Y73.669 E8.55597
G1 X97.966 Y73.431 E8.62149
G1 X98.864 Y73.331 E8.65906
G1 X99.635 Y73.309 E8.69113
G1 X100.61 Y73.318 E8.73167
G1 X101.512 Y73.367 E8.76922
G1 X102.164 Y73.452 E8.79656
G1 X104.97 Y73.912 E8.91477
G1 X106.111 Y74.077 E8.96271
G1 X106.998 Y74.246 E9.00025
G1 X107.854 Y74.488 E9.03723
G1 X108.781 Y74.795 E9.07783
G1 X109.625 Y75.117 E9.11538
G1 X110.257 Y75.417 E9.14447
G1 X112.738 Y76.699 E9.26057
G1 X113.551 Y77.097 E9.29821
G1 X113.962 Y77.307 E9.3174
G1 X114.747 Y77.753 E9.35493
G1 X115.389 Y78.192 E9.38727
G1 X116.178 Y78.776 E9.42808
G1 X116.88 Y79.344 E9.46562
G1 X117.363 Y79.802 E9.4933
G1 X119.341 Y81.802 E9.61024
G1 X120.179 Y82.617 E9.65884
G1 X120.798 Y83.275 E9.6964
G1 X121.389 Y84.031 E9.7363
G1 X121.966 Y84.845 E9.77778
G1 X122.456 Y85.605 E9.81537
G1 X122.758 Y86.162 E9.84172
G1 X123.995 Y88.622 E9.95619
G1 X124.502 Y89.585 E10.00144
G1 X125.041 Y90.793 E10.05643
G1 X125.21 Y91.249 E10.07665
G1 X125.379 Y91.743 E10.09836
G1 X125.568 Y92.346 E10.12463
G1 X125.8 Y93.219 E10.16219
G1 X125.921 Y93.878 E10.19004
G1 X126.113 Y95.155 E10.24373
G1 X126.346 Y96.543 E10.30225
G1 X126.569 Y97.975 E10.3625
G1 X126.669 Y98.873 E10.40006
G1 X126.691 Y99.64 E10.43197
G1 X126.682 Y100.611 E10.47234
G1 X126.633 Y101.512 E10.50985
G1 X126.548 Y102.164 E10.53719
G1 X126.094 Y104.936 E10.65397
G1 X125.927 Y106.096 E10.70269
G1 X125.759 Y106.983 E10.74023
G1 X125.503 Y107.88 E10.77901
G1 X125.185 Y108.83 E10.82066
G1 X124.861 Y109.673 E10.85821
G1 X124.576 Y110.273 E10.88582
G1 X123.277 Y112.788 E11.00351
G1 X122.763 Y113.828 E11.05174
G1 X122.328 Y114.619 E11.08927
G1 X121.816 Y115.38 E11.1274
G1 X121.226 Y116.177 E11.16863
G1 X120.657 Y116.878 E11.20617
G1 X120.2 Y117.361 E11.23381
G1 X118.203 Y119.336 E11.35058
G1 X117.387 Y120.176 E11.39927
G1 X116.729 Y120.795 E11.43683
G1 X115.962 Y121.395 E11.47731
G1 X115.148 Y121.971 E11.51877
G1 X114.388 Y122.46 E11.55634
G1 X113.838 Y122.758 E11.58235
G1 X111.378 Y123.995 E11.69683
G1 X110.415 Y124.502 E11.74208
G1 X109.207 Y125.041 E11.79707
G1 X108.751 Y125.21 E11.81729
G1 X108.259 Y125.378 E11.8389
G1 X107.647 Y125.57 E11.86557
G1 X106.774 Y125.802 E11.90313
G1 X106.1 Y125.926 E11.93162
G1 X104.803 Y126.12 E11.98614
G1 X103.334 Y126.366 E12.04807
G1 X102.023 Y126.57 E12.10323
G1 X101.126 Y126.669 E12.14075
G1 X100.36 Y126.691 E12.17261
G1 X99.389 Y126.682 E12.21298
G1 X98.488 Y126.633 E12.25049
G1 X97.836 Y126.548 E12.27783
G1 X95.076 Y126.096 E12.3941
G1 X93.889 Y125.924 E12.44397
G1 X93.002 Y125.755 E12.48151
G1 X92.13 Y125.507 E12.5192
G1 X91.196 Y125.196 E12.56013
G1 X90.352 Y124.873 E12.5977
G1 X89.735 Y124.579 E12.62611
G1 X87.262 Y123.301 E12.74185
G1 X86.449 Y122.903 E12.77948
G1 X86.038 Y122.693 E12.79867
G1 X85.253 Y122.247 E12.83621
G1 X84.611 Y121.808 E12.86854
G1 X83.822 Y121.224 E12.90935
G1 X83.12 Y120.656 E12.94689
G1 X82.637 Y120.198 E12.97457
G1 X80.664 Y118.203 E13.09122
G1 X79.823 Y117.386 E13.13997
G1 X79.204 Y116.728 E13.17753
G1 X78.602 Y115.959 E13.21813
G1 X78.027 Y115.146 E13.25953
G1 X77.539 Y114.386 E13.29708
G1 X77.242 Y113.838 E13.32299
G1 X76.005 Y111.378 E13.43747
G1 X75.497 Y110.413 E13.48281
G1 X74.956 Y109.2 E13.53803
G1 X74.788 Y108.746 E13.55816
G1 X74.617 Y108.246 E13.58013
G1 X74.425 Y107.631 E13.60691
G1 X74.195 Y106.758 E13.64444
G1 X74.075 Y106.103 E13.67213
G1 X73.917 Y105.051 E13.71636
G1 X73.88 Y104.871 E13.724
G1 X73.669 Y103.591 E13.77793
G1 X73.432 Y102.044 E13.843
G1 X73.332 Y101.146 E13.88056
G1 X73.309 Y100.37 E13.91284
G1 X73.318 Y99.39 E13.95359
G1 X73.367 Y98.489 E13.9911
G1 X73.452 Y97.836 E14.01848
G1 X73.902 Y95.09 E14.13417
G1 F2700 E9.13417
G0 F6000 X72.909 Y100.367
G1 F2700 E14.13417
G1 F1200 X72.918 Y99.387 E14.17491
G1 X72.967 Y98.467 E14.21322
G1 X73.057 Y97.771 E14.24239
G1 X73.509 Y95.009 E14.35875
G1 X73.611 Y94.278 E14.38944
G1 X73.714 Y93.631 E14.41667
G1 X73.901 Y92.73 E14.45493
G1 X74.124 Y91.972 E14.48778
G1 X74.437 Y91.038 E14.52874
G1 X74.768 Y90.178 E14.56705
G1 X75.071 Y89.54 E14.59641
G1 X76.341 Y87.081 E14.71147
G1 X76.746 Y86.256 E14.74968
G1 X76.955 Y85.848 E14.76874
G1 X77.41 Y85.048 E14.80701
G1 X77.864 Y84.382 E14.84052
G1 X78.447 Y83.593 E14.8813
G1 X79.026 Y82.877 E14.91959
G1 X79.518 Y82.355 E14.94941
G1 X81.536 Y80.359 E15.06741
G1 X82.326 Y79.546 E15.11454
G1 X82.996 Y78.914 E15.15284
G1 X83.807 Y78.278 E15.19569
G1 X84.621 Y77.702 E15.23714
G1 X85.395 Y77.204 E15.27541
G1 X85.983 Y76.885 E15.30322
G1 X88.392 Y75.674 E15.41532
G1 X89.398 Y75.144 E15.46259
G1 X90.654 Y74.584 E15.51976
G1 X91.11 Y74.415 E15.53998
G1 X91.621 Y74.24 E15.56244
G1 X92.233 Y74.048 E15.58911
G1 X93.123 Y73.811 E15.6274
G1 X93.847 Y73.677 E15.65801
G1 X94.897 Y73.521 E15.70214
G1 X95.064 Y73.485 E15.70924
G1 X96.343 Y73.274 E15.76314
G1 X96.512 Y73.254 E15.77021
G1 X97.905 Y73.036 E15.82883
G1 X98.82 Y72.934 E15.86711
G1 X99.639 Y72.909 E15.90118
G1 X100.614 Y72.918 E15.94171
G1 X101.533 Y72.967 E15.97997
G1 X102.229 Y73.057 E16.00915
G1 X105.043 Y73.518 E16.1277
G1 X106.168 Y73.681 E16.17496
G1 X107.073 Y73.852 E16.21326
G1 X107.979 Y74.108 E16.2524
G1 X108.906 Y74.415 E16.293
G1 X109.767 Y74.743 E16.3313
G1 X110.441 Y75.061 E16.36229
G1 X112.935 Y76.35 E16.479
G1 X113.553 Y76.651 E16.50758
G1 X114.144 Y76.951 E16.53514
G1 X114.945 Y77.405 E16.57342
G1 X115.627 Y77.87 E16.60774
G1 X116.416 Y78.454 E16.64855
G1 X117.132 Y79.033 E16.68683
G1 X117.647 Y79.521 E16.71633
G1 X119.595 Y81.491 E16.83151
G1 X120.458 Y82.33 E16.88155
G1 X121.089 Y83 E16.91981
G1 X121.716 Y83.8 E16.96207
G1 X122.293 Y84.614 E17.00356
G1 X122.792 Y85.388 E17.04184
G1 X123.115 Y85.983 E17.06999
G1 X124.326 Y88.392 E17.18209
G1 X124.856 Y89.398 E17.22936
G1 X125.416 Y90.654 E17.28653
G1 X125.585 Y91.11 E17.30675
G1 X125.761 Y91.624 E17.32934
G1 X125.95 Y92.227 E17.35561
G1 X126.187 Y93.116 E17.39386
G1 X126.317 Y93.818 E17.42355
G1 X126.517 Y95.148 E17.47946
G1 X126.76 Y96.597 E17.54055
G1 X126.965 Y97.913 E17.59592
G1 X127.067 Y98.828 E17.6342
G1 X127.091 Y99.643 E17.66809
G1 X127.082 Y100.614 E17.70847
G1 X127.033 Y101.534 E17.74677
G1 X126.943 Y102.229 E17.7759
G1 X126.488 Y105.008 E17.89298
G1 X126.323 Y106.153 E17.94108
G1 X126.152 Y107.058 E17.97937
G1 X125.883 Y108.007 E18.02038
G1 X125.565 Y108.957 E18.06203
G1 X125.235 Y109.816 E18.10028
G1 X124.931 Y110.456 E18.12974
G1 X123.648 Y112.941 E18.24601
G1 X123.122 Y114.005 E18.29536
G1 X122.679 Y114.812 E18.33363
G1 X122.138 Y115.618 E18.37399
G1 X121.548 Y116.415 E18.41522
G1 X120.968 Y117.13 E18.4535
G1 X120.482 Y117.645 E18.48294
G1 X118.464 Y119.641 E18.60094
G1 X117.674 Y120.454 E18.64807
G1 X117.004 Y121.086 E18.68636
G1 X116.193 Y121.722 E18.72921
G1 X115.379 Y122.298 E18.77067
G1 X114.605 Y122.796 E18.80894
G1 X114.017 Y123.115 E18.83675
G1 X111.608 Y124.326 E18.94884
G1 X110.602 Y124.856 E18.99612
G1 X109.346 Y125.416 E19.05329
G1 X108.89 Y125.585 E19.07351
G1 X108.379 Y125.76 E19.09597
G1 X107.767 Y125.952 E19.12263
G1 X106.877 Y126.189 E19.16093
G1 X106.159 Y126.322 E19.19128
G1 X104.872 Y126.514 E19.24538
G1 X103.396 Y126.761 E19.3076
G1 X102.085 Y126.965 E19.36276
G1 X101.17 Y127.067 E19.40104
G1 X100.357 Y127.091 E19.43485
G1 X99.386 Y127.082 E19.47523
G1 X98.466 Y127.033 E19.51353
G1 X97.771 Y126.943 E19.54267
G1 X94.95 Y126.481 E19.66151
G1 X93.832 Y126.319 E19.70848
G1 X92.927 Y126.148 E19.74677
G1 X92.003 Y125.886 E19.7867
G1 X91.069 Y125.575 E19.82763
G1 X90.209 Y125.247 E19.86589
G1 X89.551 Y124.935 E19.89617
G1 X87.065 Y123.65 E20.01252
G1 X86.447 Y123.349 E20.04109
G1 X85.856 Y123.049 E20.06865
G1 X85.055 Y122.595 E20.10693
G1 X84.373 Y122.13 E20.14125
G1 X83.584 Y121.546 E20.18206
G1 X82.868 Y120.967 E20.22034
G1 X82.353 Y120.479 E20.24984
G1 X80.409 Y118.513 E20.36479
G1 X79.544 Y117.673 E20.41492
G1 X78.913 Y117.003 E20.45318
G1 X78.276 Y116.19 E20.49612
G1 X77.701 Y115.377 E20.53752
G1 X77.202 Y114.603 E20.57581
G1 X76.885 Y114.017 E20.60351
G1 X75.663 Y111.586 E20.71663
G1 X75.143 Y110.599 E20.76301
G1 X74.75 Y109.767 E20.80126
G1 X74.581 Y109.339 E20.82039
G1 X74.413 Y108.885 E20.84052
G1 X74.236 Y108.365 E20.86336
G1 X74.044 Y107.75 E20.89014
G1 X73.808 Y106.86 E20.92842
G1 X73.679 Y106.162 E20.95793
G1 X73.517 Y105.078 E21.0035
G1 X73.485 Y104.936 E21.00955
G1 X73.274 Y103.656 E21.06349
G1 X73.254 Y103.491 E21.0704
G1 X73.037 Y102.106 E21.12868
G1 X72.934 Y101.191 E21.16696
G1 X72.909 Y100.367 E21.20124
G1 F2700 E16.20124
;MESH:Bra??o rob??tico 3.0 (Engrenagem ante-bra??o) v5.stl
G0 F6000 X97.305 Y102.355
G0 X99.284 Y103.33
;TYPE:WALL-INNER
G1 F2700 E21.20124
G1 F1200 X98.738 Y103.163 E21.22498
G1 X98.199 Y102.89 E21.2501
G1 X97.746 Y102.545 E21.27377
G1 X97.347 Y102.139 E21.29744
G1 X97.025 Y101.654 E21.32164
G1 X96.789 Y101.128 E21.34561
G1 X96.65 Y100.603 E21.36819
G1 X96.595 Y100.006 E21.39311
G1 X96.649 Y99.4 E21.41841
G1 X96.789 Y98.872 E21.44112
G1 X97.026 Y98.343 E21.46522
G1 X97.35 Y97.867 E21.48916
G1 X97.671 Y97.527 E21.5086
G1 X97.809 Y97.402 E21.51634
G1 X98.223 Y97.096 E21.53774
G1 X98.725 Y96.845 E21.56107
G1 X99.272 Y96.673 E21.58491
