;FLAVOR:Marlin
;TIME:10696
;Filament used: 11.6964m
;Layer height: 0.25
;MINX:51.522
;MINY:51.514
;MINZ:0.25
;MAXX:148.49
;MAXY:148.483
;MAXZ:30.25
;Generated with Cura_SteamEngine main
M140 S110
M105
M190 S110
M104 S245
M105
M109 S245
M82 ;absolute extrusion mode
; Ender 3 Custom Start G-code
G92 E0 ; Reset Extruder
G28 ; Home all axes
G1 Z2.0 F3000 ; Move Z Axis up little to prevent scratching of Heat Bed
G1 X0.1 Y20 Z0.3 F5000.0 ; Move to start position
G1 X0.1 Y200.0 Z0.3 F1500.0 E15 ; Draw the first line
G1 X0.4 Y200.0 Z0.3 F5000.0 ; Move to side a little
G1 X0.4 Y20 Z0.3 F1500.0 E30 ; Draw the second line
G92 E0 ; Reset Extruder
G1 Z2.0 F3000 ; Move Z Axis up little to prevent scratching of Heat Bed
G1 X5 Y20 Z0.3 F5000.0 ; Move over to prevent blob squish
G92 E0
G92 E0
G1 F2700 E-5
;LAYER_COUNT:121
;LAYER:0
M107
G0 F6000 X65.707 Y65.731 Z0.25
G0 X60.07 Y72.507
;TYPE:SKIRT
G1 F2700 E0
G1 F1200 X60.307 Y72.165 E0.0173
G1 X60.968 Y71.251 E0.06419
G1 X61.802 Y70.146 E0.12175
G1 X62.066 Y69.811 E0.13948
G1 X62.751 Y68.975 E0.18442
G1 X63.368 Y68.247 E0.22409
G1 X63.966 Y67.568 E0.26171
G1 X64.756 Y66.715 E0.31005
G1 X65.707 Y65.731 E0.36694
G1 X66.008 Y65.432 E0.38458
G1 X66.86 Y64.619 E0.43354
G1 X67.887 Y63.68 E0.4914
G1 X68.197 Y63.408 E0.50854
G1 X69.045 Y62.692 E0.55468
G1 X70.143 Y61.803 E0.61342
G1 X70.484 Y61.537 E0.6314
G1 X71.21 Y60.995 E0.66907
G1 X72.55 Y60.038 E0.73753
G1 X72.89 Y59.806 E0.75464
G1 X73.806 Y59.207 E0.80014
G1 X75.009 Y58.455 E0.85912
G1 X75.376 Y58.236 E0.87689
G1 X76.313 Y57.701 E0.92175
G1 X77.151 Y57.24 E0.96152
G1 X77.966 Y56.813 E0.99977
G1 X79.022 Y56.294 E1.04869
G1 X80.244 Y55.724 E1.10475
G1 X80.637 Y55.55 E1.12262
G1 X81.708 Y55.103 E1.17087
G1 X82.957 Y54.61 E1.22669
G1 X83.365 Y54.459 E1.24478
G1 X84.533 Y54.053 E1.29619
G1 X85.817 Y53.636 E1.35232
G1 X86.238 Y53.509 E1.3706
G1 X87.239 Y53.228 E1.41382
G1 X88.159 Y52.985 E1.45338
G1 X89.041 Y52.771 E1.49112
G1 X90.233 Y52.512 E1.54183
G1 X91.534 Y52.259 E1.59693
G1 X91.961 Y52.185 E1.61495
G1 X93.151 Y52.004 E1.665
G1 X94.471 Y51.83 E1.72035
G1 X94.898 Y51.783 E1.73821
G1 X95.973 Y51.685 E1.78309
G1 X96.918 Y51.613 E1.82249
G1 X97.829 Y51.562 E1.86042
G1 X99.023 Y51.526 E1.91009
G1 X100.358 Y51.514 E1.96559
G1 X100.783 Y51.519 E1.98326
G1 X102.009 Y51.558 E2.03426
G1 X103.332 Y51.627 E2.08934
G1 X103.763 Y51.658 E2.1073
G1 X104.887 Y51.763 E2.15424
G1 X106.243 Y51.916 E2.21097
G1 X106.669 Y51.973 E2.22884
G1 X107.86 Y52.157 E2.27894
G1 X109.207 Y52.394 E2.33581
G1 X109.626 Y52.477 E2.35356
G1 X110.748 Y52.722 E2.40131
G1 X112.049 Y53.032 E2.45691
G1 X112.478 Y53.143 E2.47534
G1 X113.623 Y53.468 E2.52482
G1 X114.906 Y53.859 E2.58058
G1 X115.31 Y53.991 E2.59826
G1 X116.425 Y54.381 E2.64737
G1 X117.696 Y54.854 E2.70375
G1 X118.104 Y55.015 E2.72198
G1 X118.943 Y55.366 E2.75979
G1 X120.397 Y56.009 E2.82589
G1 X120.776 Y56.186 E2.84328
G1 X121.873 Y56.727 E2.89414
G1 X123.084 Y57.357 E2.95089
G1 X123.451 Y57.557 E2.96826
G1 X124.386 Y58.09 E3.01301
G1 X125.037 Y58.474 E3.04443
G1 X125.958 Y59.042 E3.08942
G1 X126.92 Y59.671 E3.13721
G1 X127.669 Y60.179 E3.17483
G1 X128.433 Y60.719 E3.21373
G1 X129.158 Y61.257 E3.25126
G1 X130.42 Y62.236 E3.31767
G1 X130.76 Y62.511 E3.33585
G1 X131.603 Y63.224 E3.38175
G1 X132.195 Y63.739 E3.41437
G1 X133.011 Y64.477 E3.46012
G1 X133.776 Y65.209 E3.50414
G1 X134.426 Y65.85 E3.54209
G1 X135.117 Y66.557 E3.58319
G1 X135.825 Y67.32 E3.62647
G1 X136.394 Y67.953 E3.66185
G1 X137.064 Y68.728 E3.70444
G1 X137.76 Y69.577 E3.75009
G1 X138.28 Y70.232 E3.78486
G1 X138.907 Y71.053 E3.82781
G1 X139.456 Y71.812 E3.86675
G1 X140.076 Y72.697 E3.91168
G1 X140.623 Y73.513 E3.95252
G1 X141.075 Y74.226 E3.98762
G1 X141.686 Y75.223 E4.03623
G1 X142.147 Y76.012 E4.07422
G1 X142.574 Y76.785 E4.11094
G1 X143.046 Y77.671 E4.15267
G1 X143.53 Y78.625 E4.19715
G1 X143.914 Y79.433 E4.23434
G1 X144.578 Y80.909 E4.30163
G1 X144.743 Y81.296 E4.31912
G1 X145.1 Y82.182 E4.35883
G1 X145.663 Y83.669 E4.42494
G1 X145.808 Y84.077 E4.44294
G1 X146.162 Y85.15 E4.48992
G1 X146.569 Y86.468 E4.54727
G1 X146.691 Y86.893 E4.56565
G1 X146.942 Y87.839 E4.60634
G1 X147.193 Y88.846 E4.64949
G1 X147.404 Y89.77 E4.68889
G1 X147.635 Y90.923 E4.73778
G1 X147.873 Y92.255 E4.79404
G1 X148.065 Y93.577 E4.84957
G1 X148.254 Y95.18 E4.91668
G1 X148.294 Y95.591 E4.93385
G1 X148.388 Y96.822 E4.98518
G1 X148.46 Y98.145 E5.04026
G1 X148.475 Y98.566 E5.05778
G1 X148.49 Y99.5 E5.09661
G1 X148.482 Y101.133 E5.16451
G1 X148.471 Y101.549 E5.18181
G1 X148.431 Y102.451 E5.21935
G1 X148.365 Y103.54 E5.2647
G1 X148.316 Y104.179 E5.29135
G1 X148.195 Y105.364 E5.34087
G1 X147.987 Y106.997 E5.40931
G1 X147.925 Y107.417 E5.42696
G1 X147.732 Y108.551 E5.47479
G1 X147.483 Y109.861 E5.53023
G1 X147.388 Y110.306 E5.54914
G1 X147.103 Y111.517 E5.60087
G1 X146.785 Y112.761 E5.65425
G1 X146.676 Y113.157 E5.67133
G1 X146.326 Y114.329 E5.72218
G1 X145.919 Y115.594 E5.77743
G1 X145.781 Y115.998 E5.79517
G1 X145.368 Y117.122 E5.84496
G1 X144.883 Y118.366 E5.90047
G1 X144.72 Y118.759 E5.91816
G1 X144.25 Y119.832 E5.96686
G1 X143.663 Y121.1 E6.02495
G1 X143.479 Y121.478 E6.04243
G1 X142.977 Y122.458 E6.08821
G1 X142.33 Y123.665 E6.14515
G1 X142.102 Y124.069 E6.16443
G1 X141.554 Y124.993 E6.2091
G1 X141.064 Y125.794 E6.24813
G1 X140.55 Y126.598 E6.28781
G1 X140.023 Y127.378 E6.32695
G1 X139.489 Y128.144 E6.36577
G1 X138.867 Y129 E6.40976
G1 X138.158 Y129.921 E6.45808
G1 X137.306 Y130.983 E6.51469
G1 X137.024 Y131.322 E6.53302
G1 X136.42 Y132.016 E6.57127
G1 X135.323 Y133.225 E6.63914
G1 X135.024 Y133.541 E6.65723
G1 X134.208 Y134.366 E6.70547
G1 X133.221 Y135.326 E6.76271
G1 X132.912 Y135.615 E6.7803
G1 X132.137 Y136.311 E6.82361
G1 X131.392 Y136.959 E6.86466
G1 X130.728 Y137.513 E6.90061
G1 X129.788 Y138.26 E6.95053
G1 X129.106 Y138.784 E6.98629
G1 X128.34 Y139.349 E7.02586
G1 X127.414 Y139.995 E7.0728
G1 X126.283 Y140.751 E7.12936
G1 X125.92 Y140.984 E7.1473
G1 X124.945 Y141.58 E7.1948
G1 X124.324 Y141.947 E7.22479
G1 X123.346 Y142.5 E7.27151
G1 X122.307 Y143.05 E7.32038
G1 X121.103 Y143.657 E7.37644
G1 X120.717 Y143.843 E7.39425
G1 X119.645 Y144.329 E7.44319
G1 X118.42 Y144.855 E7.49861
G1 X118.035 Y145.011 E7.51588
G1 X116.896 Y145.447 E7.56659
G1 X115.622 Y145.904 E7.62286
G1 X115.22 Y146.04 E7.6405
G1 X114.368 Y146.309 E7.67765
G1 X113.243 Y146.645 E7.72646
G1 X112.435 Y146.867 E7.7613
G1 X111.217 Y147.169 E7.81347
G1 X109.923 Y147.461 E7.86862
G1 X109.523 Y147.544 E7.88561
G1 X108.592 Y147.718 E7.92499
G1 X106.997 Y147.98 E7.99219
G1 X106.583 Y148.04 E8.00958
G1 X105.711 Y148.148 E8.04611
G1 X104.089 Y148.315 E8.1139
G1 X103.657 Y148.35 E8.13192
G1 X102.718 Y148.408 E8.17103
G1 X101.145 Y148.473 E8.23649
G1 X100.719 Y148.482 E8.2542
G1 X99.744 Y148.483 E8.29474
G1 X98.141 Y148.45 E8.3614
G1 X97.736 Y148.434 E8.37825
G1 X96.84 Y148.381 E8.41556
G1 X95.206 Y148.248 E8.48372
G1 X94.785 Y148.205 E8.50132
G1 X93.685 Y148.07 E8.54739
G1 X92.953 Y147.969 E8.57811
G1 X91.862 Y147.798 E8.62403
G1 X90.734 Y147.588 E8.67173
G1 X89.357 Y147.303 E8.73019
G1 X88.921 Y147.203 E8.74879
G1 X87.919 Y146.952 E8.79173
G1 X86.998 Y146.707 E8.83136
G1 X86.113 Y146.453 E8.86964
G1 X84.982 Y146.096 E8.91894
G1 X83.683 Y145.656 E8.97596
G1 X83.289 Y145.514 E8.99338
G1 X82.298 Y145.134 E9.0375
G1 X81.368 Y144.76 E9.07918
G1 X80.862 Y144.548 E9.10199
G1 X79.744 Y144.046 E9.15294
G1 X78.275 Y143.342 E9.22066
G1 X77.903 Y143.155 E9.23797
G1 X77.056 Y142.707 E9.27781
G1 X75.657 Y141.927 E9.3444
G1 X75.305 Y141.721 E9.36136
G1 X74.306 Y141.109 E9.41007
G1 X73.136 Y140.359 E9.46785
G1 X72.774 Y140.116 E9.48597
G1 X71.897 Y139.501 E9.5305
G1 X70.77 Y138.679 E9.5885
G1 X70.417 Y138.411 E9.60693
G1 X69.678 Y137.825 E9.64614
G1 X68.442 Y136.803 E9.71282
G1 X68.12 Y136.525 E9.7305
G1 X67.266 Y135.756 E9.77828
G1 X66.27 Y134.823 E9.83502
G1 X65.96 Y134.521 E9.85301
G1 X65.286 Y133.838 E9.89291
G1 X64.195 Y132.685 E9.9589
G1 X63.909 Y132.371 E9.97656
G1 X63.317 Y131.693 E10.01398
G1 X62.285 Y130.46 E10.08083
G1 X62.017 Y130.126 E10.09863
G1 X61.254 Y129.132 E10.15073
G1 X60.488 Y128.09 E10.2045
G1 X60.244 Y127.745 E10.22206
G1 X59.568 Y126.743 E10.27232
G1 X58.842 Y125.618 E10.32798
G1 X58.622 Y125.262 E10.34538
G1 X58.149 Y124.464 E10.38395
G1 X57.356 Y123.06 E10.45099
G1 X57.154 Y122.683 E10.46877
G1 X56.636 Y121.667 E10.51618
G1 X56.044 Y120.446 E10.5726
G1 X55.866 Y120.059 E10.59031
G1 X55.375 Y118.93 E10.64149
G1 X54.86 Y117.675 E10.69789
G1 X54.711 Y117.294 E10.7149
G1 X54.321 Y116.225 E10.76221
G1 X53.882 Y114.943 E10.81855
G1 X53.751 Y114.534 E10.8364
G1 X53.483 Y113.639 E10.87524
G1 X53.19 Y112.598 E10.92021
G1 X52.951 Y111.679 E10.95968
G1 X52.722 Y110.701 E11.00145
G1 X52.407 Y109.219 E11.06444
G1 X52.325 Y108.789 E11.08264
G1 X52.124 Y107.593 E11.13306
G1 X51.93 Y106.282 E11.18816
G1 X51.875 Y105.848 E11.20634
G1 X51.748 Y104.642 E11.25676
G1 X51.636 Y103.319 E11.31196
G1 X51.609 Y102.903 E11.32929
G1 X51.558 Y101.792 E11.37553
G1 X51.532 Y100.914 E11.41205
G1 X51.522 Y99.943 E11.45242
G1 X51.535 Y99.007 E11.49134
G1 X51.591 Y97.43 E11.55695
G1 X51.614 Y97.015 E11.57423
G1 X51.706 Y95.819 E11.6241
G1 X51.839 Y94.459 E11.68091
G1 X51.89 Y94.032 E11.69879
G1 X52.047 Y92.906 E11.74605
G1 X52.268 Y91.53 E11.80399
G1 X52.343 Y91.114 E11.82157
G1 X52.526 Y90.2 E11.86032
G1 X52.87 Y88.65 E11.92633
G1 X52.972 Y88.233 E11.94418
G1 X53.292 Y87.035 E11.99573
G1 X53.651 Y85.793 E12.04948
G1 X53.773 Y85.398 E12.06667
G1 X54.137 Y84.304 E12.11461
G1 X54.584 Y83.043 E12.17023
G1 X54.739 Y82.633 E12.18845
G1 X55.216 Y81.448 E12.24156
G1 X55.733 Y80.239 E12.29623
G1 X55.896 Y79.876 E12.31277
G1 X56.396 Y78.821 E12.36131
G1 X56.989 Y77.633 E12.41651
G1 X57.19 Y77.25 E12.43449
G1 X57.785 Y76.172 E12.48569
G1 X58.471 Y74.99 E12.5425
G1 X58.681 Y74.644 E12.55933
G1 X59.311 Y73.65 E12.60826
G1 X60.07 Y72.507 E12.6653
G1 F2700 E7.6653
G0 F6000 X56.62 Y80.217
G1 F2700 E12.6653
G1 F1200 X57.112 Y79.179 E12.71306
G1 X57.705 Y77.991 E12.76826
G1 X57.891 Y77.635 E12.78496
G1 X58.477 Y76.574 E12.83535
G1 X59.163 Y75.392 E12.89217
G1 X59.357 Y75.071 E12.90777
G1 X59.847 Y74.294 E12.94596
G1 X60.737 Y72.95 E13.01297
G1 X60.956 Y72.633 E13.02899
G1 X61.607 Y71.733 E13.07517
G1 X62.441 Y70.628 E13.13273
G1 X62.685 Y70.317 E13.14916
G1 X63.362 Y69.491 E13.19357
G1 X63.871 Y68.889 E13.22634
G1 X64.554 Y68.11 E13.26941
G1 X65.166 Y67.446 E13.30696
G1 X66.283 Y66.287 E13.37388
G1 X66.561 Y66.009 E13.39022
G1 X67.4 Y65.209 E13.43842
G1 X68.427 Y64.27 E13.49628
G1 X69.371 Y63.461 E13.54796
G1 X70.647 Y62.425 E13.6163
G1 X70.963 Y62.179 E13.63295
G1 X71.876 Y61.5 E13.68025
G1 X73.014 Y60.69 E13.73832
G1 X73.33 Y60.474 E13.75424
G1 X74.23 Y59.886 E13.79893
G1 X75.433 Y59.134 E13.85792
G1 X75.773 Y58.93 E13.8744
G1 X76.561 Y58.479 E13.91215
G1 X77.385 Y58.023 E13.9513
G1 X78.32 Y57.53 E13.99525
G1 X79.36 Y57.019 E14.04342
G1 X80.582 Y56.449 E14.09948
G1 X80.947 Y56.288 E14.11607
G1 X82.002 Y55.847 E14.16361
G1 X83.251 Y55.354 E14.21943
G1 X83.629 Y55.214 E14.23619
G1 X84.78 Y54.814 E14.28685
G1 X86.064 Y54.397 E14.34298
G1 X86.454 Y54.279 E14.35992
G1 X87.444 Y54.001 E14.40267
G1 X88.185 Y53.804 E14.43455
G1 X89.212 Y53.552 E14.47851
G1 X90.146 Y53.347 E14.51827
G1 X91.687 Y53.045 E14.58356
G1 X92.082 Y52.976 E14.60023
G1 X93.256 Y52.797 E14.6496
G1 X94.576 Y52.623 E14.70495
G1 X94.971 Y52.579 E14.72148
G1 X95.881 Y52.495 E14.75947
G1 X96.967 Y52.411 E14.80476
G1 X97.855 Y52.361 E14.84173
G1 X99.03 Y52.326 E14.89061
G1 X100.365 Y52.314 E14.94611
G1 X100.759 Y52.318 E14.96249
G1 X101.738 Y52.347 E15.00321
G1 X103.29 Y52.426 E15.06782
G1 X103.69 Y52.455 E15.0845
G1 X104.798 Y52.558 E15.13076
G1 X106.154 Y52.711 E15.18749
G1 X106.548 Y52.764 E15.20402
G1 X107.722 Y52.945 E15.25341
G1 X109.069 Y53.182 E15.31027
G1 X109.457 Y53.258 E15.32671
G1 X110.354 Y53.452 E15.36486
G1 X111.863 Y53.81 E15.42934
G1 X112.262 Y53.913 E15.44647
G1 X113.179 Y54.171 E15.48608
G1 X114.672 Y54.624 E15.55094
G1 X115.048 Y54.746 E15.56738
G1 X115.937 Y55.055 E15.60651
G1 X117.417 Y55.604 E15.67214
G1 X117.796 Y55.753 E15.68907
G1 X118.635 Y56.104 E15.72688
G1 X120.073 Y56.74 E15.79225
G1 X120.424 Y56.904 E15.80836
G1 X121.503 Y57.436 E15.85837
G1 X122.714 Y58.066 E15.91512
G1 X123.056 Y58.252 E15.93131
G1 X123.846 Y58.702 E15.96911
G1 X124.772 Y59.249 E16.01382
G1 X125.521 Y59.712 E16.05043
G1 X126.472 Y60.334 E16.09768
G1 X127.21 Y60.834 E16.13474
G1 X127.731 Y61.199 E16.16118
G1 X128.866 Y62.04 E16.21992
G1 X129.929 Y62.867 E16.27591
G1 X130.244 Y63.122 E16.29276
G1 X131.078 Y63.827 E16.33816
G1 X131.67 Y64.342 E16.37078
G1 X132.221 Y64.835 E16.40152
G1 X133.215 Y65.78 E16.45854
G1 X133.741 Y66.297 E16.48921
G1 X134.531 Y67.102 E16.5361
G1 X135.23 Y67.855 E16.57881
G1 X135.799 Y68.488 E16.6142
G1 X136.446 Y69.236 E16.65532
G1 X137.134 Y70.075 E16.70043
G1 X137.654 Y70.73 E16.7352
G1 X138.259 Y71.522 E16.77663
G1 X138.808 Y72.281 E16.81558
G1 X139.327 Y73.02 E16.85312
G1 X139.773 Y73.675 E16.88607
G1 X140.4 Y74.655 E16.93444
G1 X140.997 Y75.63 E16.98197
G1 X141.446 Y76.399 E17.01899
G1 X141.952 Y77.317 E17.06257
G1 X142.34 Y78.047 E17.09694
G1 X142.808 Y78.969 E17.13993
G1 X143.192 Y79.777 E17.17712
G1 X143.848 Y81.236 E17.24363
G1 X144.001 Y81.595 E17.25985
G1 X144.442 Y82.696 E17.30916
G1 X144.915 Y83.951 E17.36492
G1 X145.049 Y84.329 E17.3816
G1 X145.398 Y85.386 E17.42787
G1 X145.805 Y86.704 E17.48522
G1 X145.918 Y87.098 E17.50226
G1 X146.169 Y88.044 E17.54296
G1 X146.414 Y89.027 E17.58507
G1 X146.62 Y89.929 E17.62354
G1 X146.803 Y90.832 E17.66185
G1 X147.085 Y92.396 E17.72792
G1 X147.146 Y92.779 E17.74404
G1 X147.303 Y93.922 E17.79201
G1 X147.46 Y95.273 E17.84856
G1 X147.497 Y95.653 E17.86443
G1 X147.589 Y96.866 E17.915
G1 X147.661 Y98.189 E17.97009
G1 X147.675 Y98.579 E17.98631
G1 X147.691 Y99.743 E18.03471
G1 X147.682 Y101.128 E18.09229
G1 X147.672 Y101.514 E18.10835
G1 X147.623 Y102.587 E18.15301
G1 X147.578 Y103.322 E18.18362
G1 X147.492 Y104.408 E18.22891
G1 X147.4 Y105.28 E18.26537
G1 X147.194 Y106.895 E18.33305
G1 X147.136 Y107.284 E18.34941
G1 X146.946 Y108.402 E18.39655
G1 X146.697 Y109.712 E18.45199
G1 X146.609 Y110.124 E18.46951
G1 X146.328 Y111.319 E18.52055
G1 X146.01 Y112.563 E18.57393
G1 X145.909 Y112.93 E18.58975
G1 X145.565 Y114.084 E18.63982
G1 X145.158 Y115.349 E18.69506
G1 X145.029 Y115.724 E18.71155
G1 X144.7 Y116.625 E18.75143
G1 X144.137 Y118.075 E18.8161
G1 X143.987 Y118.44 E18.83251
G1 X143.621 Y119.281 E18.87064
G1 X142.937 Y120.764 E18.93854
G1 X142.767 Y121.115 E18.95475
G1 X142.368 Y121.897 E18.99125
G1 X141.625 Y123.287 E19.05678
G1 X141.414 Y123.662 E19.07467
G1 X140.946 Y124.453 E19.11288
G1 X140.387 Y125.367 E19.15742
G1 X139.887 Y126.15 E19.19604
G1 X139.36 Y126.93 E19.23518
G1 X138.741 Y127.816 E19.28012
G1 X138.232 Y128.514 E19.31603
G1 X137.534 Y129.421 E19.36361
G1 X136.682 Y130.483 E19.42022
G1 X136.42 Y130.796 E19.43719
G1 X135.816 Y131.49 E19.47544
G1 X134.731 Y132.686 E19.54258
G1 X134.454 Y132.98 E19.55937
G1 X133.65 Y133.793 E19.60691
G1 X132.663 Y134.753 E19.66415
G1 X132.377 Y135.02 E19.68042
G1 X131.611 Y135.708 E19.72322
G1 X131.001 Y136.24 E19.75688
G1 X130.23 Y136.887 E19.79872
G1 X129.423 Y137.529 E19.84159
G1 X128.627 Y138.143 E19.88339
G1 X127.88 Y138.694 E19.92198
G1 X126.969 Y139.33 E19.96817
G1 X125.838 Y140.086 E20.02473
G1 X125.502 Y140.302 E20.04134
G1 X124.68 Y140.806 E20.08143
G1 X123.917 Y141.258 E20.1183
G1 X122.97 Y141.794 E20.16354
G1 X121.947 Y142.336 E20.21167
G1 X120.743 Y142.943 E20.26773
G1 X120.385 Y143.115 E20.28424
