;FLAVOR:Marlin
;TIME:1720
;Filament used: 1.3625m
;Layer height: 0.25
;MINX:78.677
;MINY:64
;MINZ:0.25
;MAXX:121.323
;MAXY:136
;MAXZ:5
;Generated with Cura_SteamEngine main
M140 S110
M105
M190 S110
M104 S245
M105
M109 S245
M82 ;absolute extrusion mode
; Ender 3 Custom Start G-code
G92 E0 ; Reset Extruder
G28 ; Home all axes
G1 Z2.0 F3000 ; Move Z Axis up little to prevent scratching of Heat Bed
G1 X0.1 Y20 Z0.3 F5000.0 ; Move to start position
G1 X0.1 Y200.0 Z0.3 F1500.0 E15 ; Draw the first line
G1 X0.4 Y200.0 Z0.3 F5000.0 ; Move to side a little
G1 X0.4 Y20 Z0.3 F1500.0 E30 ; Draw the second line
G92 E0 ; Reset Extruder
G1 Z2.0 F3000 ; Move Z Axis up little to prevent scratching of Heat Bed
G1 X5 Y20 Z0.3 F5000.0 ; Move over to prevent blob squish
G92 E0
G92 E0
G1 F2700 E-5
;LAYER_COUNT:20
;LAYER:0
M107
G0 F6000 X81.243 Y67.958 Z0.25
G0 X78.678 Y75.525
;TYPE:SKIRT
G1 F2700 E0
G1 F1200 X78.687 Y74.86 E0.02765
G1 X78.74 Y73.924 E0.06663
G1 X78.872 Y72.995 E0.10564
G1 X79.083 Y72.081 E0.14464
G1 X79.371 Y71.189 E0.18361
G1 X79.734 Y70.324 E0.22261
G1 X80.169 Y69.493 E0.2616
G1 X80.673 Y68.703 E0.30056
G1 X81.243 Y67.958 E0.33956
G1 X81.875 Y67.264 E0.37859
G1 X82.563 Y66.627 E0.41757
G1 X83.303 Y66.051 E0.45656
G1 X84.089 Y65.539 E0.49556
G1 X84.916 Y65.097 E0.53454
G1 X85.778 Y64.727 E0.57354
G1 X86.668 Y64.431 E0.61253
G1 X87.58 Y64.213 E0.65152
G1 X88.507 Y64.072 E0.6905
G1 X89.378 Y64.013 E0.7268
G1 X90.007 Y64 E0.75295
G1 X109.774 Y64.001 E1.57477
G1 X110.472 Y64.011 E1.60379
G1 X111.408 Y64.065 E1.64277
G1 X112.336 Y64.197 E1.68174
G1 X113.25 Y64.409 E1.72075
G1 X114.142 Y64.698 E1.75973
G1 X115.007 Y65.061 E1.79873
G1 X115.837 Y65.497 E1.83771
G1 X116.628 Y66.002 E1.87673
G1 X117.372 Y66.573 E1.91572
G1 X118.065 Y67.205 E1.95472
G1 X118.702 Y67.893 E1.9937
G1 X119.277 Y68.634 E2.03269
G1 X119.788 Y69.42 E2.07167
G1 X120.23 Y70.248 E2.11069
G1 X120.599 Y71.11 E2.14967
G1 X120.894 Y72 E2.18865
G1 X121.112 Y72.912 E2.22764
G1 X121.252 Y73.84 E2.26666
G1 X121.31 Y74.701 E2.30254
G1 X121.323 Y75.33 E2.32869
G1 X121.322 Y124.4 E4.36879
G1 X121.313 Y125.127 E4.39901
G1 X121.262 Y126.064 E4.43803
G1 X121.13 Y126.992 E4.477
G1 X120.921 Y127.906 E4.51598
G1 X120.634 Y128.799 E4.55497
G1 X120.272 Y129.665 E4.594
G1 X119.838 Y130.496 E4.63297
G1 X119.334 Y131.287 E4.67197
G1 X118.765 Y132.032 E4.71094
G1 X118.134 Y132.727 E4.74997
G1 X117.447 Y133.365 E4.78895
G1 X116.708 Y133.942 E4.82793
G1 X115.922 Y134.454 E4.86693
G1 X115.096 Y134.897 E4.9059
G1 X114.234 Y135.269 E4.94493
G1 X113.345 Y135.565 E4.98388
G1 X112.433 Y135.785 E5.02289
G1 X111.506 Y135.926 E5.06187
G1 X110.622 Y135.987 E5.09871
G1 X109.993 Y136 E5.12487
G1 X90.242 Y135.999 E5.94602
G1 X89.544 Y135.99 E5.97504
G1 X88.608 Y135.938 E6.01402
G1 X87.679 Y135.806 E6.05303
G1 X86.765 Y135.596 E6.09202
G1 X85.872 Y135.309 E6.13101
G1 X85.007 Y134.946 E6.17001
G1 X84.176 Y134.512 E6.20899
G1 X83.385 Y134.008 E6.24799
G1 X82.64 Y133.438 E6.28698
G1 X81.946 Y132.807 E6.32598
G1 X81.309 Y132.12 E6.36493
G1 X80.732 Y131.38 E6.40394
G1 X80.22 Y130.594 E6.44294
G1 X79.777 Y129.767 E6.48195
G1 X79.406 Y128.906 E6.52093
G1 X79.11 Y128.016 E6.55992
G1 X78.891 Y127.104 E6.59892
G1 X78.75 Y126.177 E6.6379
G1 X78.69 Y125.288 E6.67494
G1 X78.677 Y124.658 E6.70114
G1 X78.678 Y75.525 E8.74385
G0 F6000 X79.078 Y75.531
G1 F1200 X79.087 Y74.866 E8.7715
G1 X79.139 Y73.946 E8.80982
G1 X79.271 Y73.035 E8.84809
G1 X79.482 Y72.139 E8.88636
G1 X79.769 Y71.264 E8.92464
G1 X80.132 Y70.418 E8.96291
G1 X80.566 Y69.606 E9.00119
G1 X81.069 Y68.835 E9.03947
G1 X81.638 Y68.111 E9.07775
G1 X82.266 Y67.439 E9.11599
G1 X82.951 Y66.823 E9.15429
G1 X83.687 Y66.27 E9.19256
G1 X84.468 Y65.782 E9.23085
G1 X85.288 Y65.364 E9.26912
G1 X86.142 Y65.019 E9.30741
G1 X87.022 Y64.749 E9.34568
G1 X87.922 Y64.557 E9.38394
G1 X88.836 Y64.443 E9.42223
G1 X89.389 Y64.413 E9.44526
G1 X90.007 Y64.4 E9.47096
G1 X109.616 Y64.4 E10.28621
G1 X110.466 Y64.411 E10.32155
G1 X111.385 Y64.464 E10.35982
G1 X112.296 Y64.597 E10.39809
G1 X113.192 Y64.808 E10.43636
G1 X114.066 Y65.096 E10.47462
G1 X114.913 Y65.459 E10.51294
G1 X115.724 Y65.894 E10.5512
G1 X116.494 Y66.398 E10.58946
G1 X117.218 Y66.967 E10.62774
G1 X117.89 Y67.597 E10.66604
G1 X118.505 Y68.282 E10.70431
G1 X119.058 Y69.018 E10.74258
G1 X119.545 Y69.799 E10.78085
G1 X119.962 Y70.62 E10.81913
G1 X120.307 Y71.474 E10.85743
G1 X120.576 Y72.354 E10.89568
G1 X120.768 Y73.255 E10.93398
G1 X120.881 Y74.168 E10.97223
G1 X120.91 Y74.712 E10.99488
G1 X120.923 Y75.33 E11.02058
G1 X120.922 Y124.395 E13.06047
G1 X120.913 Y125.122 E13.09069
G1 X120.862 Y126.041 E13.12896
G1 X120.731 Y126.953 E13.16727
G1 X120.521 Y127.849 E13.20553
G1 X120.235 Y128.724 E13.2438
G1 X119.874 Y129.571 E13.28208
G1 X119.44 Y130.383 E13.32036
G1 X118.938 Y131.155 E13.35864
G1 X118.37 Y131.88 E13.39693
G1 X117.742 Y132.553 E13.4352
G1 X117.058 Y133.169 E13.47347
G1 X116.323 Y133.723 E13.51174
G1 X115.543 Y134.212 E13.55001
G1 X114.723 Y134.631 E13.5883
G1 X113.87 Y134.977 E13.62657
G1 X112.99 Y135.248 E13.66485
G1 X112.09 Y135.441 E13.70312
G1 X111.176 Y135.556 E13.74142
G1 X110.611 Y135.587 E13.76494
G1 X109.993 Y135.6 E13.79064
G1 X90.247 Y135.599 E14.61158
G1 X89.549 Y135.59 E14.64061
G1 X88.63 Y135.538 E14.67887
G1 X87.719 Y135.407 E14.71714
G1 X86.823 Y135.197 E14.7554
G1 X85.948 Y134.91 E14.79368
G1 X85.101 Y134.548 E14.83198
G1 X84.289 Y134.114 E14.87026
G1 X83.518 Y133.612 E14.90851
G1 X82.793 Y133.044 E14.9468
G1 X82.12 Y132.415 E14.9851
G1 X81.505 Y131.731 E15.02334
G1 X80.951 Y130.996 E15.06161
G1 X80.463 Y130.215 E15.09989
G1 X80.044 Y129.395 E15.13818
G1 X79.698 Y128.542 E15.17645
G1 X79.428 Y127.662 E15.21472
G1 X79.235 Y126.761 E15.25303
G1 X79.121 Y125.848 E15.29128
G1 X79.09 Y125.277 E15.31505
G1 X79.077 Y124.658 E15.34079
G1 X79.078 Y75.531 E17.38326
G0 F6000 X79.478 Y75.536
G1 F1200 X79.487 Y74.871 E17.41091
G1 X79.539 Y73.969 E17.44847
G1 X79.671 Y73.076 E17.486
G1 X79.881 Y72.198 E17.52353
G1 X80.168 Y71.341 E17.56111
G1 X80.53 Y70.514 E17.59864
G1 X80.963 Y69.722 E17.63617
G1 X81.465 Y68.971 E17.67372
G1 X82.032 Y68.267 E17.71131
G1 X82.658 Y67.617 E17.74882
G1 X83.339 Y67.024 E17.78637
G1 X84.071 Y66.494 E17.82394
G1 X84.846 Y66.031 E17.86147
G1 X85.659 Y65.638 E17.89901
G1 X86.504 Y65.318 E17.93658
G1 X87.373 Y65.075 E17.9741
G1 X88.261 Y64.909 E18.01165
G1 X89.4 Y64.813 E18.05918
G1 X90.007 Y64.8 E18.08442
G1 X109.616 Y64.8 E18.89966
G1 X110.46 Y64.811 E18.93476
G1 X111.362 Y64.864 E18.97232
G1 X112.255 Y64.996 E19.00985
G1 X113.133 Y65.207 E19.0474
G1 X113.989 Y65.495 E19.08494
G1 X114.816 Y65.857 E19.12248
G1 X115.608 Y66.292 E19.16004
G1 X116.359 Y66.794 E19.1976
G1 X117.062 Y67.361 E19.23515
G1 X117.712 Y67.988 E19.2727
G1 X118.304 Y68.67 E19.31024
G1 X118.834 Y69.401 E19.34778
G1 X119.296 Y70.177 E19.38533
G1 X119.689 Y70.99 E19.42287
G1 X120.007 Y71.835 E19.46041
G1 X120.25 Y72.705 E19.49796
G1 X120.415 Y73.593 E19.53551
G1 X120.51 Y74.723 E19.58266
G1 X120.523 Y75.33 E19.6079
G1 X120.522 Y124.39 E21.64758
G1 X120.513 Y125.117 E21.67781
G1 X120.462 Y126.019 E21.71537
G1 X120.331 Y126.913 E21.75293
G1 X120.122 Y127.791 E21.79045
G1 X119.836 Y128.648 E21.82802
G1 X119.475 Y129.476 E21.86557
G1 X119.043 Y130.268 E21.90308
G1 X118.542 Y131.02 E21.94064
G1 X117.976 Y131.724 E21.9782
G1 X117.351 Y132.375 E22.01572
G1 X116.67 Y132.969 E22.05329
G1 X115.939 Y133.5 E22.09085
G1 X115.165 Y133.964 E22.12837
G1 X114.352 Y134.358 E22.16593
G1 X113.508 Y134.678 E22.20346
G1 X112.638 Y134.923 E22.24104
G1 X111.751 Y135.089 E22.27855
G1 X110.6 Y135.187 E22.32658
G1 X109.993 Y135.2 E22.35182
G1 X90.252 Y135.199 E23.17256
G1 X89.554 Y135.19 E23.20158
G1 X88.653 Y135.139 E23.2391
G1 X87.759 Y135.007 E23.27667
G1 X86.881 Y134.798 E23.31419
G1 X86.024 Y134.511 E23.35177
G1 X85.197 Y134.15 E23.38928
G1 X84.404 Y133.717 E23.42685
G1 X83.653 Y133.216 E23.46438
G1 X82.949 Y132.65 E23.50194
G1 X82.298 Y132.024 E23.53948
G1 X81.705 Y131.343 E23.57703
G1 X81.175 Y130.612 E23.61457
G1 X80.711 Y129.837 E23.65212
G1 X80.317 Y129.024 E23.68968
G1 X79.997 Y128.18 E23.72721
G1 X79.753 Y127.31 E23.76477
G1 X79.587 Y126.422 E23.80233
G1 X79.49 Y125.267 E23.85052
G1 X79.477 Y124.658 E23.87584
G1 X79.478 Y75.536 E25.9181
G1 F2700 E20.9181
;MESH:Bra??o Rob??tico 3.0(Tampa do motor da cerro do bra??o) v10.stl
G0 F6000 X89.012 Y75.536
G0 X90.097 Y75.536
G0 X91.254 Y89.739
G0 X91.892 Y89.855
G0 X94.097 Y92.683
;TYPE:WALL-INNER
G1 F2700 E25.9181
G1 F1200 X94.332 Y92.488 E25.9308
G1 X94.992 Y92.035 E25.96408
G1 X95.748 Y91.607 E26.0002
G1 X96.541 Y91.251 E26.03633
G1 X97.414 Y90.952 E26.0747
G1 X98.289 Y90.744 E26.11209
G1 X99.073 Y90.638 E26.14498
G1 X99.964 Y90.592 E26.18208
G1 X100.865 Y90.631 E26.21957
G1 X101.715 Y90.749 E26.25525
G1 X102.54 Y90.94 E26.29045
G1 X103.396 Y91.225 E26.32796
G1 X104.203 Y91.579 E26.3646
G1 X105.008 Y92.035 E26.40306
G1 X105.668 Y92.488 E26.43635
G1 X105.903 Y92.682 E26.44902
G1 X105.839 Y92.465 E26.45842
G1 X105.8 Y92.182 E26.4703
G1 X105.8 Y91.816 E26.48551
G1 X105.84 Y91.528 E26.4976
G1 X105.921 Y91.254 E26.50948
G1 X106.05 Y90.943 E26.52348
G1 X106.189 Y90.735 E26.53388
G1 X106.463 Y90.395 E26.55204
G1 X106.842 Y90.109 E26.57178
G1 X107.256 Y89.919 E26.59071
G1 X107.714 Y89.799 E26.6104
G1 X108.294 Y89.799 E26.63451
G1 X108.923 Y89.967 E26.66158
G1 X108.923 Y83.031 E26.94994
G1 X108.287 Y83.2 E26.9773
G1 X107.71 Y83.199 E27.00129
G1 X107.165 Y83.055 E27.02473
G1 X106.805 Y82.861 E27.04173
G1 X106.423 Y82.569 E27.06172
G1 X106.142 Y82.2 E27.081
G1 X106.012 Y81.965 E27.09217
G1 X105.843 Y81.525 E27.11177
G1 X105.789 Y81.011 E27.13325
G1 X105.828 Y80.603 E27.15029
G1 X105.949 Y80.15 E27.16979
G1 X106.239 Y79.646 E27.19396
G1 X106.646 Y79.238 E27.21792
G1 X107.143 Y78.952 E27.24176
G1 X107.546 Y78.835 E27.25921
G1 X107.85 Y78.796 E27.27195
G1 X108.298 Y78.8 E27.29058
G1 X108.923 Y78.967 E27.31747
G1 X108.923 Y77.602 E27.37422
G1 X108.923 Y76.4 E27.4242
G1 X91.078 Y76.401 E28.1661
G1 X91.078 Y78.966 E28.27275
G1 X91.708 Y78.799 E28.29984
G1 X92.276 Y78.795 E28.32346
G1 X92.848 Y78.946 E28.34805
G1 X93.354 Y79.238 E28.37234
G1 X93.761 Y79.646 E28.3963
G1 X94.051 Y80.15 E28.42048
G1 X94.172 Y80.603 E28.43997
G1 X94.211 Y81.011 E28.45701
G1 X94.157 Y81.525 E28.4785
G1 X93.988 Y81.965 E28.49809
G1 X93.86 Y82.197 E28.50911
G1 X93.562 Y82.582 E28.52935
G1 X93.159 Y82.889 E28.55041
G1 X92.744 Y83.079 E28.56939
G1 X92.29 Y83.2 E28.58892
G1 X91.708 Y83.2 E28.61312
G1 X91.078 Y83.032 E28.64023
G1 X91.078 Y89.966 E28.92851
G1 X91.712 Y89.798 E28.95578
G1 X92.287 Y89.799 E28.97968
G1 X92.744 Y89.919 E28.99933
G1 X93.158 Y90.109 E29.01827
G1 X93.539 Y90.398 E29.03815
G1 X93.812 Y90.735 E29.05618
G1 X93.953 Y90.948 E29.0668
G1 X94.079 Y91.254 E29.08056
G1 X94.16 Y91.526 E29.09236
G1 X94.2 Y91.816 E29.10453
G1 X94.199 Y92.182 E29.11974
G1 X94.16 Y92.464 E29.13158
G1 X94.097 Y92.683 E29.14105
G0 F6000 X91.078 Y97.037
G1 F1200 X91.204 Y96.66 E29.15758
G1 X91.574 Y95.808 E29.1962
G1 X91.967 Y95.101 E29.22983
G1 X92.488 Y94.332 E29.26845
G1 X92.682 Y94.097 E29.28111
G1 X92.466 Y94.162 E29.29049
G1 X92.182 Y94.2 E29.30241
G1 X91.708 Y94.2 E29.32211
G1 X91.254 Y94.079 E29.34165
G1 X91.078 Y94.007 E29.34955
G1 X91.078 Y97.037 E29.47552
G0 F6000 X91.19 Y100.816
G0 X91.459 Y102.26
G0 X92.682 Y105.902
G1 F1200 X92.488 Y105.668 E29.48816
G1 X91.967 Y104.899 E29.52678
G1 X91.574 Y104.192 E29.56041
G1 X91.204 Y103.34 E29.59903
G1 X91.078 Y102.963 E29.61555
G1 X91.078 Y105.968 E29.74049
G1 X91.708 Y105.8 E29.76759
G1 X92.182 Y105.8 E29.7873
G1 X92.467 Y105.839 E29.79926
G1 X92.682 Y105.902 E29.80857
G0 F6000 X96.056 Y107.921
G0 X97.579 Y108.511
G0 X99.184 Y108.81
G0 X100.816 Y108.81
G0 X102.421 Y108.511
G0 X103.944 Y107.921
G0 X107.318 Y105.903
G1 F1200 X107.535 Y105.839 E29.81798
G1 X107.818 Y105.8 E29.82986
G1 X108.288 Y105.8 E29.8494
G1 X108.746 Y105.922 E29.8691
G1 X108.923 Y105.993 E29.87703
G1 X108.923 Y102.957 E30.00325
G1 X108.795 Y103.339 E30.02
G1 X108.425 Y104.195 E30.05877
G1 X107.966 Y105.006 E30.09752
G1 X107.512 Y105.668 E30.13089
G1 X107.318 Y105.903 E30.14356
G0 F6000 X108.511 Y102.421
G0 X108.78 Y100.977
G0 X108.923 Y97.042
G1 F1200 X108.923 Y94.031 E30.26874
G1 X108.288 Y94.2 E30.29606
G1 X107.818 Y94.2 E30.3156
G1 X107.535 Y94.161 E30.32748
G1 X107.315 Y94.096 E30.33702
G1 X107.512 Y94.332 E30.3498
G1 X107.966 Y94.995 E30.38321
G1 X108.393 Y95.748 E30.41919
G1 X108.749 Y96.54 E30.4553
G1 X108.923 Y97.042 E30.47738
G1 F2700 E25.47738
G0 F6000 X108.81 Y100.816
G0 X108.511 Y102.421
G0 X107.921 Y103.944
G0 X107.061 Y105.333
G0 X105.961 Y106.539
G0 X104.659 Y107.524
G0 X103.196 Y108.252
G0 X99.047 Y109.52
G0 X94.38 Y107.766
G0 X92.199 Y110.361
G0 X91.254 Y110.261
G0 X91.254 Y116.74
G0 X94.286 Y118.365
G0 X92.48 Y121.323
G0 X91.254 Y121.261
G0 X91.078 Y123.599
G1 F2700 E30.47738
G1 F1200 X108.923 Y123.6 E31.21929
G1 X108.923 Y121.033 E31.32602
G1 X108.298 Y121.2 E31.35291
G1 X107.725 Y121.205 E31.37674
G1 X107.152 Y121.054 E31.40137
G1 X106.646 Y120.762 E31.42566
G1 X106.239 Y120.354 E31.44962
G1 X105.949 Y119.85 E31.4738
G1 X105.828 Y119.397 E31.49329
G1 X105.789 Y118.989 E31.51033
G1 X105.843 Y118.474 E31.53186
G1 X106.012 Y118.035 E31.55142
G1 X106.14 Y117.803 E31.56243
G1 X106.438 Y117.418 E31.58267
G1 X106.841 Y117.111 E31.60374
G1 X107.256 Y116.921 E31.62271
G1 X107.71 Y116.801 E31.64223
G1 X108.287 Y116.8 E31.66622
G1 X108.923 Y116.969 E31.69358
G1 X108.923 Y110.033 E31.98195
G1 X108.294 Y110.201 E32.00902
G1 X107.714 Y110.201 E32.03313
G1 X107.256 Y110.081 E32.05281
G1 X106.842 Y109.891 E32.07175
G1 X106.461 Y109.602 E32.09163
G1 X106.188 Y109.265 E32.10966
G1 X106.047 Y109.052 E32.12028
G1 X105.921 Y108.746 E32.13404
G1 X105.84 Y108.474 E32.14584
G1 X105.8 Y108.184 E32.15801
G1 X105.8 Y107.818 E32.17323
G1 X105.839 Y107.535 E32.18511
G1 X105.904 Y107.315 E32.19464
G1 X105.668 Y107.512 E32.20742
G1 X104.966 Y107.993 E32.2428
G1 X104.191 Y108.427 E32.27973
G1 X103.342 Y108.795 E32.3182
G1 X102.586 Y109.048 E32.35135
G1 X101.714 Y109.254 E32.3886
G1 X100.927 Y109.362 E32.42163
G1 X100 Y109.409 E32.46022
G1 X99.134 Y109.369 E32.49626
G1 X98.285 Y109.251 E32.53189
G1 X97.46 Y109.06 E32.5671
G1 X96.604 Y108.775 E32.60461
G1 X95.801 Y108.423 E32.64106
G1 X95.034 Y107.993 E32.67762
G1 X94.332 Y107.512 E32.713
G1 X94.097 Y107.318 E32.72567
G1 X94.162 Y107.534 E32.73505
G1 X94.2 Y107.818 E32.74696
G1 X94.2 Y108.184 E32.76218
G1 X94.16 Y108.472 E32.77426
G1 X94.079 Y108.746 E32.78614
G1 X93.951 Y109.056 E32.80009
G1 X93.811 Y109.265 E32.81054
G1 X93.538 Y109.604 E32.82864
G1 X93.196 Y109.863 E32.84648
G1 X92.834 Y110.057 E32.86355
G1 X92.288 Y110.201 E32.88703
G1 X91.712 Y110.202 E32.91098
G1 X91.254 Y110.081 E32.93067
G1 X91.078 Y110.009 E32.93858
G1 X91.078 Y116.968 E33.2279
G1 X91.708 Y116.8 E33.25501
G1 X92.29 Y116.8 E33.2792
G1 X92.835 Y116.945 E33.30265
G1 X93.196 Y117.139 E33.31969
G1 X93.579 Y117.431 E33.33971
G1 X93.858 Y117.8 E33.35894
G1 X93.988 Y118.035 E33.37011
G1 X94.157 Y118.474 E33.38967
G1 X94.211 Y118.989 E33.41119
G1 X94.172 Y119.397 E33.42823
G1 X94.051 Y119.85 E33.44773
G1 X93.761 Y120.354 E33.4719
G1 X93.354 Y120.762 E33.49586
G1 X92.857 Y121.048 E33.5197
G1 X92.454 Y121.165 E33.53715
G1 X92.15 Y121.204 E33.54989
G1 X91.708 Y121.201 E33.56827
G1 X91.078 Y121.034 E33.59537
G1 X91.078 Y123.599 E33.70201
G0 F6000 X90.678 Y123.999
G1 F1200 X109.323 Y124 E34.47717
G1 X109.323 Y120.233 E34.63379
G1 X109.021 Y120.497 E34.65047
G1 X108.703 Y120.68 E34.66572
G1 X108.246 Y120.804 E34.68541
G1 X107.766 Y120.805 E34.70536
